;This Gcode has been generated specifically for the LulzBot Mini
;Basic settings: Layer height: 0.38 Walls: 1 Fill: 0
;Filament Diameter: 2.85
;Nozzle Size: 0.5
G21                          ; metric values
G90                          ; absolute positioning
M82                          ; set extruder to absolute mode
M107                         ; start with the fan off
G92 E0                       ; set extruder position to 0
M140 S60; get bed heating up
G28                          ; home all
M109 S140                    ; set to cleaning temp and wait
G1 Z150 E-30 F75             ; suck up XXmm of filament
M109 S140                    ; heat up rest of way
G1 X45 Y174 F11520           ; move behind scraper
G1 Z0  F1200                 ; CRITICAL: set Z to height of top of scraper
G1 X45 Y174 Z-.5 F4000       ; wiping ; plunge into wipe pad
G1 X55 Y172 Z-.5 F4000       ; wiping
G1 X45 Y174 Z0 F4000         ; wiping
G1 X55 Y172 F4000            ; wiping
G1 X45 Y174 F4000            ; wiping
G1 X55 Y172 F4000            ; wiping
G1 X45 Y174 F4000            ; wiping
G1 X55 Y172 F4000            ; wiping
G1 X60 Y174 F4000            ; wiping
G1 X80 Y172 F4000            ; wiping
G1 X60 Y174 F4000            ; wiping
G1 X80 Y172 F4000            ; wiping
G1 X60 Y174 F4000            ; wiping
G1 X90 Y172 F4000            ; wiping
G1 X80 Y174 F4000            ; wiping
G1 X100 Y172 F4000           ; wiping
G1 X80 Y174 F4000            ; wiping
G1 X100 Y172 F4000           ; wiping
G1 X80 Y174 F4000            ; wiping
G1 X100 Y172 F4000           ; wiping
G1 X110 Y174 F4000           ; wiping
G1 X100 Y172 F4000           ; wiping
G1 X110 Y174 F4000           ; wiping
G1 X100 Y172 F4000           ; wiping
G1 X110 Y174 F4000           ; wiping
G1 X115 Y172 Z-0.5 F1000     ; wipe slower and bury noz in cleanish area
G1 Z10                       ; raise z
G28 X0 Y0                    ; home x and y
M109 S140                    ; set to probing temp
M204 S300                    ; Set probing acceleration
G29                          ; Probe
M204 S2000                   ; Restore standard acceleration
G1 X5 Y15 Z10 F5000          ; get out the way
G4 S1                        ; pause
M400                         ; clear buffer
M109 S205    ; set extruder temp and wait
G4 S15                       ; wait for bed to temp up
G1 Z2 E0 F75                 ; extrude filament back into nozzle
M140 S60; get bed temping up during first layer

;Layer count: 105
;LAYER:0
M107
G0 F10500 X62.564 Y60.564 Z0.425
;TYPE:SKIRT
G1 F900 X97.436 Y60.564 E1.45200
G1 X97.436 Y95.436 E2.90400
G1 X62.564 Y95.436 E4.35600
G1 X62.564 Y60.564 E5.80799
G0 F10500 X63.189 Y61.189
G1 F900 X96.811 Y61.189 E7.20795
G1 X96.811 Y94.811 E8.60790
G1 X63.189 Y94.811 E10.00785
G1 X63.189 Y61.189 E11.40780
G1 F600 E9.90780
G1 Z0.525
G0 F10500 X67.438 Y65.438
;TYPE:WALL-INNER
G1 Z0.425
G1 F600 E11.40780
G1 F900 X92.562 Y65.438 E12.45391
G1 X92.562 Y90.562 E13.50002
G1 X67.438 Y90.562 E14.54613
G1 X67.438 Y65.438 E15.59225
G0 F10500 X66.813 Y64.813
;TYPE:WALL-OUTER
G1 F900 X93.187 Y64.813 E16.69041
G1 X93.187 Y91.187 E17.78857
G1 X66.813 Y91.187 E18.88672
G1 X66.813 Y64.813 E19.98488
G0 F10500 X67.865 Y65.656
;TYPE:SKIN
G1 F900 X92.342 Y90.133 E21.42621
G0 F10500 X91.667 Y90.342
G1 F900 X67.656 Y66.331 E22.84010
G0 F10500 X67.656 Y67.215
G1 F900 X90.783 Y90.342 E24.20193
G0 F10500 X89.899 Y90.342
G1 F900 X67.656 Y68.099 E25.51171
G0 F10500 X67.656 Y68.983
G1 F900 X89.015 Y90.342 E26.76943
G0 F10500 X88.131 Y90.342
G1 F900 X67.656 Y69.867 E27.97510
G0 F10500 X67.656 Y70.750
G1 F900 X87.247 Y90.342 E29.12875
G0 F10500 X86.363 Y90.342
G1 F900 X67.656 Y71.634 E30.23034
G0 F10500 X67.656 Y72.518
G1 F900 X85.480 Y90.342 E31.27990
G0 F10500 X84.596 Y90.342
G1 F900 X67.656 Y73.402 E32.27741
G0 F10500 X67.656 Y74.286
G1 F900 X83.712 Y90.342 E33.22287
G0 F10500 X82.828 Y90.342
G1 F900 X67.656 Y75.170 E34.11627
G0 F10500 X67.656 Y76.054
G1 F900 X81.944 Y90.342 E34.95762
G0 F10500 X81.060 Y90.342
G1 F900 X67.656 Y76.938 E35.74691
G0 F10500 X67.656 Y77.822
G1 F900 X80.176 Y90.342 E36.48415
G0 F10500 X92.342 Y89.249
G1 F900 X68.749 Y65.656 E37.87343
G0 F10500 X69.633 Y65.656
G1 F900 X92.342 Y88.365 E39.21064
G0 F10500 X92.342 Y87.481
G1 F900 X70.517 Y65.656 E40.49581
G0 F10500 X71.401 Y65.656
G1 F900 X92.342 Y86.597 E41.72892
G0 F10500 X92.342 Y85.714
G1 F900 X72.285 Y65.656 E42.91000
G0 F10500 X73.169 Y65.656
G1 F900 X92.342 Y84.830 E44.03903
G0 F10500 X92.342 Y83.946
G1 F900 X74.053 Y65.656 E45.11601
G0 F10500 X74.937 Y65.656
G1 F900 X92.342 Y83.062 E46.14093
G0 F10500 X92.342 Y82.178
G1 F900 X75.820 Y65.656 E47.11383
G0 F10500 X76.704 Y65.656
G1 F900 X92.342 Y81.294 E48.03467
G0 F10500 X92.342 Y80.410
G1 F900 X77.588 Y65.656 E48.90346
G0 F10500 X78.472 Y65.656
G1 F900 X92.342 Y79.526 E49.72020
G0 F10500 X92.342 Y78.643
G1 F900 X79.356 Y65.656 E50.48491
G0 F10500 X67.656 Y78.705
G1 F900 X79.292 Y90.342 E51.17012
G0 F10500 X78.408 Y90.342
G1 F900 X67.656 Y79.589 E51.80328
G0 F10500 X67.656 Y80.473
G1 F900 X77.525 Y90.342 E52.38442
G0 F10500 X76.641 Y90.342
G1 F900 X67.656 Y81.357 E52.91350
G0 F10500 X67.656 Y82.241
G1 F900 X75.757 Y90.342 E53.39052
G0 F10500 X74.873 Y90.342
G1 F900 X67.656 Y83.125 E53.81550
G0 F10500 X67.656 Y84.009
G1 F900 X73.989 Y90.342 E54.18842
G0 F10500 X73.105 Y90.342
G1 F900 X67.656 Y84.893 E54.50928
G0 F10500 X67.656 Y85.777
G1 F900 X72.221 Y90.342 E54.77809
G0 F10500 X71.337 Y90.342
G1 F900 X67.656 Y86.660 E54.99487
G0 F10500 X67.656 Y87.544
G1 F900 X70.453 Y90.342 E55.15961
G0 F10500 X69.570 Y90.342
G1 F900 X67.656 Y88.428 E55.27231
G0 F10500 X67.656 Y89.312
G1 F900 X68.686 Y90.342 E55.33296
G0 F10500 X67.802 Y90.342
G1 F900 X67.656 Y90.196 E55.34156
G0 F10500 X80.240 Y65.656
G1 F900 X92.342 Y77.759 E56.05422
G0 F10500 X92.342 Y76.875
G1 F900 X81.124 Y65.656 E56.71482
G0 F10500 X82.008 Y65.656
G1 F900 X92.342 Y75.991 E57.32336
G0 F10500 X92.342 Y75.107
G1 F900 X82.892 Y65.656 E57.87985
G0 F10500 X83.775 Y65.656
G1 F900 X92.342 Y74.223 E58.38432
G0 F10500 X92.342 Y73.339
G1 F900 X84.659 Y65.656 E58.83674
G0 F10500 X85.543 Y65.656
G1 F900 X92.342 Y72.455 E59.23709
G0 F10500 X92.342 Y71.571
G1 F900 X86.427 Y65.656 E59.58540
G0 F10500 X87.311 Y65.656
G1 F900 X92.342 Y70.688 E59.88168
G0 F10500 X92.342 Y69.804
G1 F900 X88.195 Y65.656 E60.12590
G0 F10500 X89.079 Y65.656
G1 F900 X92.342 Y68.920 E60.31807
G0 F10500 X92.342 Y68.036
G1 F900 X89.963 Y65.656 E60.45819
G0 F10500 X90.846 Y65.656
G1 F900 X92.342 Y67.152 E60.54628
G0 F10500 X92.342 Y66.268
G1 F900 X91.730 Y65.656 E60.58232
;LAYER:1
M106 S191
G0 F10500 X92.749 Y65.251 Z0.805
;TYPE:WALL-INNER
G1 F1140 X92.749 Y90.749 E61.34174
G1 X67.251 Y90.749 E62.10115
G1 X67.251 Y65.251 E62.86057
G1 X92.749 Y65.251 E63.61999
G0 F10500 X93.249 Y64.751
;TYPE:WALL-OUTER
G1 F1080 X93.249 Y91.249 E64.40919
G1 X66.751 Y91.249 E65.19839
G1 X66.751 Y64.751 E65.98759
G1 X93.249 Y64.751 E66.77679
G0 F10500 X92.573 Y65.465
;TYPE:SKIN
G1 F1380 X67.464 Y90.574 E67.83438
G0 F10500 X67.425 Y89.905
G1 F1380 X91.905 Y65.425 E68.86548
G0 F10500 X91.198 Y65.425
G1 F1380 X67.425 Y89.198 E69.86680
G0 F10500 X67.425 Y88.491
G1 F1380 X90.491 Y65.425 E70.83834
G0 F10500 X89.784 Y65.425
G1 F1380 X67.425 Y87.784 E71.78010
G0 F10500 X67.425 Y87.077
G1 F1380 X89.077 Y65.425 E72.69209
G0 F10500 X88.369 Y65.425
G1 F1380 X67.425 Y86.370 E73.57427
G0 F10500 X67.425 Y85.663
G1 F1380 X87.662 Y65.425 E74.42668
G0 F10500 X86.955 Y65.425
G1 F1380 X67.425 Y84.956 E75.24930
G0 F10500 X67.425 Y84.248
G1 F1380 X86.248 Y65.425 E76.04213
G0 F10500 X85.541 Y65.425
G1 F1380 X67.425 Y83.541 E76.80517
G0 F10500 X67.425 Y82.834
G1 F1380 X84.834 Y65.425 E77.53844
G0 F10500 X84.127 Y65.425
G1 F1380 X67.425 Y82.127 E78.24193
G0 F10500 X67.425 Y81.420
G1 F1380 X83.420 Y65.425 E78.91564
G0 F10500 X82.713 Y65.425
G1 F1380 X67.425 Y80.713 E79.55957
G0 F10500 X67.425 Y80.006
G1 F1380 X82.006 Y65.425 E80.17373
G0 F10500 X81.298 Y65.425
G1 F1380 X67.425 Y79.299 E80.75808
G0 F10500 X67.425 Y78.592
G1 F1380 X80.591 Y65.425 E81.31265
G0 F10500 X92.573 Y66.172
G1 F1380 X68.171 Y90.574 E82.34047
G0 F10500 X68.878 Y90.574
G1 F1380 X92.573 Y66.879 E83.33850
G0 F10500 X92.573 Y67.586
G1 F1380 X69.585 Y90.574 E84.30676
G0 F10500 X70.292 Y90.574
G1 F1380 X92.573 Y68.293 E85.24523
G0 F10500 X92.573 Y69.000
G1 F1380 X70.999 Y90.574 E86.15393
G0 F10500 X71.706 Y90.574
G1 F1380 X92.573 Y69.708 E87.03283
G0 F10500 X92.573 Y70.415
G1 F1380 X72.414 Y90.574 E87.88193
G0 F10500 X73.121 Y90.574
G1 F1380 X92.573 Y71.122 E88.70125
G0 F10500 X92.573 Y71.829
G1 F1380 X73.828 Y90.574 E89.49079
G0 F10500 X74.535 Y90.574
G1 F1380 X92.573 Y72.536 E90.25055
G0 F10500 X92.573 Y73.243
G1 F1380 X75.242 Y90.574 E90.98053
G0 F10500 X75.949 Y90.574
G1 F1380 X92.573 Y73.950 E91.68074
G0 F10500 X92.573 Y74.657
G1 F1380 X76.656 Y90.574 E92.35116
G0 F10500 X77.363 Y90.574
G1 F1380 X92.573 Y75.364 E92.99181
G0 F10500 X92.573 Y76.071
G1 F1380 X78.070 Y90.574 E93.60268
G0 F10500 X78.778 Y90.574
G1 F1380 X92.573 Y76.779 E94.18372
G0 F10500 X92.573 Y77.486
G1 F1380 X79.485 Y90.574 E94.73499
G0 F10500 X80.192 Y90.574
G1 F1380 X92.573 Y78.193 E95.25648
G0 F10500 X92.573 Y78.900
G1 F1380 X80.899 Y90.574 E95.74819
G0 F10500 X81.606 Y90.574
G1 F1380 X92.573 Y79.607 E96.21012
G0 F10500 X92.573 Y80.314
G1 F1380 X82.313 Y90.574 E96.64227
G0 F10500 X83.020 Y90.574
G1 F1380 X92.573 Y81.021 E97.04464
G0 F10500 X92.573 Y81.728
G1 F1380 X83.727 Y90.574 E97.41724
G0 F10500 X84.434 Y90.574
G1 F1380 X92.573 Y82.435 E97.76005
G0 F10500 X92.573 Y83.143
G1 F1380 X85.142 Y90.574 E98.07305
G0 F10500 X85.849 Y90.574
G1 F1380 X92.573 Y83.850 E98.35626
G0 F10500 X92.573 Y84.557
G1 F1380 X86.556 Y90.574 E98.60970
G0 F10500 X87.263 Y90.574
G1 F1380 X92.573 Y85.264 E98.83336
G0 F10500 X92.573 Y85.971
G1 F1380 X87.970 Y90.574 E99.02723
G0 F10500 X88.677 Y90.574
G1 F1380 X92.573 Y86.678 E99.19133
G0 F10500 X92.573 Y87.385
G1 F1380 X89.384 Y90.574 E99.32565
G0 F10500 X90.091 Y90.574
G1 F1380 X92.573 Y88.092 E99.43020
G0 F10500 X92.573 Y88.799
G1 F1380 X90.798 Y90.574 E99.50496
G0 F10500 X91.505 Y90.574
G1 F1380 X92.573 Y89.506 E99.54994
G0 F10500 X92.573 Y90.214
G1 F1380 X92.213 Y90.574 E99.56511
G0 F10500 X67.425 Y77.884
G1 F1380 X79.884 Y65.425 E100.08988
G0 F10500 X79.177 Y65.425
G1 F1380 X67.425 Y77.177 E100.58488
G0 F10500 X67.425 Y76.470
G1 F1380 X78.470 Y65.425 E101.05009
G0 F10500 X77.763 Y65.425
G1 F1380 X67.425 Y75.763 E101.48553
G0 F10500 X67.425 Y75.056
G1 F1380 X77.056 Y65.425 E101.89119
G0 F10500 X76.349 Y65.425
G1 F1380 X67.425 Y74.349 E102.26707
G0 F10500 X67.425 Y73.642
G1 F1380 X75.642 Y65.425 E102.61317
G0 F10500 X74.934 Y65.425
G1 F1380 X67.425 Y72.935 E102.92947
G0 F10500 X67.425 Y72.228
G1 F1380 X74.227 Y65.425 E103.21599
G0 F10500 X73.520 Y65.425
G1 F1380 X67.425 Y71.521 E103.47273
G0 F10500 X67.425 Y70.813
G1 F1380 X72.813 Y65.425 E103.69968
G0 F10500 X72.106 Y65.425
G1 F1380 X67.425 Y70.106 E103.89684
G0 F10500 X67.425 Y69.399
G1 F1380 X71.399 Y65.425 E104.06422
G0 F10500 X70.692 Y65.425
G1 F1380 X67.425 Y68.692 E104.20183
G0 F10500 X67.425 Y67.985
G1 F1380 X69.985 Y65.425 E104.30966
G0 F10500 X69.278 Y65.425
G1 F1380 X67.425 Y67.278 E104.38771
G0 F10500 X67.425 Y66.571
G1 F1380 X68.570 Y65.425 E104.43596
G0 F10500 X67.863 Y65.425
G1 F1380 X67.425 Y65.864 E104.45443
;LAYER:2
G0 F10500 X67.251 Y65.251 Z1.185
;TYPE:WALL-INNER
G1 F1440 X92.749 Y65.251 E105.21384
G1 X92.749 Y90.749 E105.97326
G1 X67.251 Y90.749 E106.73268
G1 X67.251 Y65.251 E107.49209
G0 F10500 X66.751 Y64.751
;TYPE:WALL-OUTER
G1 F1320 X93.249 Y64.751 E108.28129
G1 X93.249 Y91.249 E109.07049
G1 X66.751 Y91.249 E109.85969
G1 X66.751 Y64.751 E110.64889
G0 F10500 X67.425 Y65.657
;TYPE:SKIN
G1 F1920 X92.341 Y90.573 E111.69836
G0 F10500 X92.573 Y90.098
G1 F1920 X67.900 Y65.425 E112.73758
G0 F10500 X68.607 Y65.425
G1 F1920 X92.573 Y89.391 E113.74703
G0 F10500 X92.573 Y88.684
G1 F1920 X69.314 Y65.425 E114.72670
G0 F10500 X70.021 Y65.425
G1 F1920 X92.573 Y87.977 E115.67660
G0 F10500 X92.573 Y87.270
G1 F1920 X70.729 Y65.425 E116.59669
G0 F10500 X71.436 Y65.425
G1 F1920 X92.573 Y86.563 E117.48700
G0 F10500 X92.573 Y85.856
G1 F1920 X72.143 Y65.425 E118.34753
G0 F10500 X72.850 Y65.425
G1 F1920 X92.573 Y85.149 E119.17829
G0 F10500 X92.573 Y84.441
G1 F1920 X73.557 Y65.425 E119.97924
G0 F10500 X74.264 Y65.425
G1 F1920 X92.573 Y83.734 E120.75042
G0 F10500 X92.573 Y83.027
G1 F1920 X74.971 Y65.425 E121.49182
G0 F10500 X75.678 Y65.425
G1 F1920 X92.573 Y82.320 E122.20344
G0 F10500 X92.573 Y81.613
G1 F1920 X76.385 Y65.425 E122.88528
G0 F10500 X77.093 Y65.425
G1 F1920 X92.573 Y80.906 E123.53731
G0 F10500 X92.573 Y80.199
G1 F1920 X77.800 Y65.425 E124.15958
G0 F10500 X78.507 Y65.425
G1 F1920 X92.573 Y79.492 E124.75206
G0 F10500 X92.573 Y78.785
G1 F1920 X79.214 Y65.425 E125.31476
G0 F10500 X79.921 Y65.425
G1 F1920 X92.573 Y78.078 E125.84768
G0 F10500 X92.573 Y77.370
G1 F1920 X80.628 Y65.425 E126.35081
G0 F10500 X81.335 Y65.425
G1 F1920 X92.573 Y76.663 E126.82415
G0 F10500 X92.573 Y75.956
G1 F1920 X82.042 Y65.425 E127.26772
G0 F10500 X82.749 Y65.425
G1 F1920 X92.573 Y75.249 E127.68151
G0 F10500 X92.573 Y74.542
G1 F1920 X83.456 Y65.425 E128.06552
G0 F10500 X84.164 Y65.425
G1 F1920 X92.573 Y73.835 E128.41973
G0 F10500 X92.573 Y73.128
G1 F1920 X84.871 Y65.425 E128.74415
G0 F10500 X85.578 Y65.425
G1 F1920 X92.573 Y72.421 E129.03881
G0 F10500 X92.573 Y71.714
G1 F1920 X86.285 Y65.425 E129.30368
G0 F10500 X86.992 Y65.425
G1 F1920 X92.573 Y71.006 E129.53875
G0 F10500 X92.573 Y70.299
G1 F1920 X87.699 Y65.425 E129.74404
G0 F10500 X88.406 Y65.425
G1 F1920 X92.573 Y69.592 E129.91956
G0 F10500 X92.573 Y68.885
G1 F1920 X89.113 Y65.425 E130.06529
G0 F10500 X89.820 Y65.425
G1 F1920 X92.573 Y68.178 E130.18125
G0 F10500 X92.573 Y67.471
G1 F1920 X90.528 Y65.425 E130.26741
G0 F10500 X91.235 Y65.425
G1 F1920 X92.573 Y66.764 E130.32378
G0 F10500 X92.573 Y66.057
G1 F1920 X91.942 Y65.425 E130.35038
G0 F10500 X67.425 Y66.364
G1 F1920 X91.633 Y90.573 E131.37005
G0 F10500 X90.926 Y90.573
G1 F1920 X67.425 Y67.071 E132.35993
G0 F10500 X67.425 Y67.779
G1 F1920 X90.219 Y90.573 E133.32002
G0 F10500 X89.512 Y90.573
G1 F1920 X67.425 Y68.486 E134.25032
G0 F10500 X67.425 Y69.193
G1 F1920 X88.805 Y90.573 E135.15085
G0 F10500 X88.098 Y90.573
G1 F1920 X67.425 Y69.900 E136.02160
G0 F10500 X67.425 Y70.607
G1 F1920 X87.391 Y90.573 E136.86257
G0 F10500 X86.684 Y90.573
G1 F1920 X67.425 Y71.314 E137.67376
G0 F10500 X67.425 Y72.021
G1 F1920 X85.977 Y90.573 E138.45517
G0 F10500 X85.270 Y90.573
G1 F1920 X67.425 Y72.728 E139.20680
G0 F10500 X67.425 Y73.435
G1 F1920 X84.562 Y90.573 E139.92863
G0 F10500 X83.855 Y90.573
G1 F1920 X67.425 Y74.142 E140.62069
G0 F10500 X67.425 Y74.850
G1 F1920 X83.148 Y90.573 E141.28294
G0 F10500 X82.441 Y90.573
G1 F1920 X67.425 Y75.557 E141.91541
G0 F10500 X67.425 Y76.264
G1 F1920 X81.734 Y90.573 E142.51811
G0 F10500 X81.027 Y90.573
G1 F1920 X67.425 Y76.971 E143.09103
G0 F10500 X67.425 Y77.678
G1 F1920 X80.320 Y90.573 E143.63417
G0 F10500 X79.613 Y90.573
G1 F1920 X67.425 Y78.385 E144.14752
G0 F10500 X67.425 Y79.092
G1 F1920 X78.906 Y90.573 E144.63110
G0 F10500 X78.198 Y90.573
G1 F1920 X67.425 Y79.799 E145.08489
G0 F10500 X67.425 Y80.506
G1 F1920 X77.491 Y90.573 E145.50889
G0 F10500 X76.784 Y90.573
G1 F1920 X67.425 Y81.214 E145.90309
G0 F10500 X67.425 Y81.921
G1 F1920 X76.077 Y90.573 E146.26751
G0 F10500 X75.370 Y90.573
G1 F1920 X67.425 Y82.628 E146.60216
G0 F10500 X67.425 Y83.335
G1 F1920 X74.663 Y90.573 E146.90702
G0 F10500 X73.956 Y90.573
G1 F1920 X67.425 Y84.042 E147.18211
G0 F10500 X67.425 Y84.749
G1 F1920 X73.249 Y90.573 E147.42741
G0 F10500 X72.542 Y90.573
G1 F1920 X67.425 Y85.456 E147.64294
G0 F10500 X67.425 Y86.163
G1 F1920 X71.834 Y90.573 E147.82867
G0 F10500 X71.127 Y90.573
G1 F1920 X67.425 Y86.870 E147.98462
G0 F10500 X67.425 Y87.578
G1 F1920 X70.420 Y90.573 E148.11077
G0 F10500 X69.713 Y90.573
G1 F1920 X67.425 Y88.285 E148.20714
G0 F10500 X67.425 Y88.992
G1 F1920 X69.006 Y90.573 E148.27373
G0 F10500 X68.299 Y90.573
G1 F1920 X67.425 Y89.699 E148.31055
G0 F10500 X67.425 Y90.406
G1 F1920 X67.592 Y90.573 E148.31758
;LAYER:3
M106 S255
G0 F10500 X67.251 Y90.749 Z1.565
;TYPE:WALL-INNER
G1 F660 X67.251 Y65.251 E149.07700
G1 X92.749 Y65.251 E149.83641
G1 X92.749 Y90.749 E150.59583
G1 X67.251 Y90.749 E151.35525
G0 F10500 X66.751 Y91.249
;TYPE:WALL-OUTER
G1 F600 X66.751 Y64.751 E152.14445
G1 X93.249 Y64.751 E152.93365
G1 X93.249 Y91.249 E153.72285
G1 X66.751 Y91.249 E154.51205
G0 F10500 X67.011 Y90.899
G0 X68.001 Y89.999
;LAYER:4
G0 X67.251 Y90.749 Z1.945
;TYPE:WALL-INNER
G1 F660 X67.251 Y65.251 E155.27146
G1 X92.749 Y65.251 E156.03088
G1 X92.749 Y90.749 E156.79030
G1 X67.251 Y90.749 E157.54971
G0 F10500 X66.751 Y91.249
;TYPE:WALL-OUTER
G1 F540 X66.751 Y64.751 E158.33891
G1 X93.249 Y64.751 E159.12811
G1 X93.249 Y91.249 E159.91731
G1 X66.751 Y91.249 E160.70651
G0 F10500 X67.011 Y90.899
G0 X68.001 Y89.999
;LAYER:5
G0 X67.251 Y90.749 Z2.325
;TYPE:WALL-INNER
G1 F660 X67.251 Y65.251 E161.46593
G1 X92.749 Y65.251 E162.22535
G1 X92.749 Y90.749 E162.98476
G1 X67.251 Y90.749 E163.74418
G0 F10500 X66.751 Y91.249
;TYPE:WALL-OUTER
G1 F540 X66.751 Y64.751 E164.53338
G1 X93.249 Y64.751 E165.32258
G1 X93.249 Y91.249 E166.11178
G1 X66.751 Y91.249 E166.90098
G0 F10500 X67.011 Y90.899
G0 X68.001 Y89.999
;LAYER:6
G0 X67.251 Y90.749 Z2.705
;TYPE:WALL-INNER
G1 F660 X67.251 Y65.251 E167.66040
G1 X92.749 Y65.251 E168.41981
G1 X92.749 Y90.749 E169.17923
G1 X67.251 Y90.749 E169.93865
G0 F10500 X66.751 Y91.249
;TYPE:WALL-OUTER
G1 F540 X66.751 Y64.751 E170.72785
G1 X93.249 Y64.751 E171.51705
G1 X93.249 Y91.249 E172.30625
G1 X66.751 Y91.249 E173.09545
G0 F10500 X67.011 Y90.899
G0 X68.001 Y89.999
;LAYER:7
G0 X67.251 Y90.749 Z3.085
;TYPE:WALL-INNER
G1 F660 X67.251 Y65.251 E173.85486
G1 X92.749 Y65.251 E174.61428
G1 X92.749 Y90.749 E175.37370
G1 X67.251 Y90.749 E176.13311
G0 F10500 X66.751 Y91.249
;TYPE:WALL-OUTER
G1 F540 X66.751 Y64.751 E176.92231
G1 X93.249 Y64.751 E177.71151
G1 X93.249 Y91.249 E178.50071
G1 X66.751 Y91.249 E179.28991
G0 F10500 X67.011 Y90.899
G0 X68.001 Y89.999
;LAYER:8
G0 X67.251 Y90.749 Z3.465
;TYPE:WALL-INNER
G1 F660 X67.251 Y65.251 E180.04933
G1 X92.749 Y65.251 E180.80875
G1 X92.749 Y90.749 E181.56816
G1 X67.251 Y90.749 E182.32758
G0 F10500 X66.751 Y91.249
;TYPE:WALL-OUTER
G1 F540 X66.751 Y64.751 E183.11678
G1 X93.249 Y64.751 E183.90598
G1 X93.249 Y91.249 E184.69518
G1 X66.751 Y91.249 E185.48438
G0 F10500 X67.011 Y90.899
G0 X68.001 Y89.999
;LAYER:9
G0 X67.251 Y90.749 Z3.845
;TYPE:WALL-INNER
G1 F660 X67.251 Y65.251 E186.24380
G1 X92.749 Y65.251 E187.00321
G1 X92.749 Y90.749 E187.76263
G1 X67.251 Y90.749 E188.52205
G0 F10500 X66.751 Y91.249
;TYPE:WALL-OUTER
G1 F540 X66.751 Y64.751 E189.31125
G1 X93.249 Y64.751 E190.10045
G1 X93.249 Y91.249 E190.88965
G1 X66.751 Y91.249 E191.67885
G0 F10500 X67.011 Y90.899
G0 X68.001 Y89.999
;LAYER:10
M106 S191
G0 X67.251 Y90.749 Z4.225
;TYPE:WALL-INNER
G1 F2100 X67.251 Y65.251 E192.43826
G1 X92.749 Y65.251 E193.19768
G1 X92.749 Y90.749 E193.95710
G1 X67.251 Y90.749 E194.71651
G0 F10500 X66.751 Y91.249
;TYPE:WALL-OUTER
G1 F1800 X66.751 Y64.751 E195.50571
G1 X93.249 Y64.751 E196.29491
G1 X93.249 Y91.249 E197.08411
G1 X66.751 Y91.249 E197.87331
G0 F10500 X67.011 Y90.899
G0 X72.930 Y87.425
;TYPE:SKIN
G1 F3000 X70.572 Y85.067 E197.97263
G0 F10500 X69.455 Y83.244
G1 F3000 X74.753 Y88.542 E198.19578
G0 F10500 X76.007 Y89.089
G1 F3000 X68.909 Y81.991 E198.49475
G0 F10500 X68.602 Y80.976
G1 F3000 X77.022 Y89.396 E198.84940
G0 F10500 X77.959 Y89.626
G1 F3000 X68.372 Y80.039 E199.25321
G0 F10500 X68.294 Y79.254
G1 F3000 X78.744 Y89.704 E199.69336
G0 F10500 X79.529 Y89.782
G1 F3000 X68.216 Y78.469 E200.16987
G0 F10500 X68.196 Y77.742
G1 F3000 X80.256 Y89.802 E200.67784
G0 F10500 X80.900 Y89.738
G1 F3000 X68.259 Y77.098 E201.21025
G0 F10500 X68.323 Y76.455
G1 F3000 X81.543 Y89.675 E201.76708
G0 F10500 X82.187 Y89.611
G1 F3000 X68.387 Y75.811 E202.34834
G0 F10500 X68.532 Y75.250
G1 F3000 X82.748 Y89.465 E202.94710
G0 F10500 X83.290 Y89.301
G1 F3000 X68.697 Y74.707 E203.56177
G0 F10500 X68.861 Y74.164
G1 F3000 X83.833 Y89.137 E204.19242
G0 F10500 X84.376 Y88.972
G1 F3000 X69.026 Y73.622 E204.83896
G0 F10500 X69.249 Y73.138
G1 F3000 X84.859 Y88.748 E205.49645
G0 F10500 X85.320 Y88.502
G1 F3000 X69.495 Y72.677 E206.16300
G0 F10500 X69.741 Y72.216
G1 F3000 X85.781 Y88.256 E206.83861
G0 F10500 X86.242 Y88.010
G1 F3000 X69.988 Y71.755 E207.52325
G0 F10500 X70.254 Y71.315
G1 F3000 X86.683 Y87.744 E208.21524
G0 F10500 X87.071 Y87.424
G1 F3000 X70.574 Y70.927 E208.91010
G0 F10500 X70.893 Y70.539
G1 F3000 X87.459 Y87.105 E209.60786
G0 F10500 X87.847 Y86.786
G1 F3000 X71.212 Y70.151 E210.30852
G0 F10500 X71.530 Y69.763
G1 F3000 X88.235 Y86.467 E211.01212
G0 F10500 X88.578 Y86.103
G1 F3000 X71.896 Y69.421 E211.71477
G0 F10500 X72.284 Y69.102
G1 F3000 X88.897 Y85.715 E212.41451
G0 F10500 X89.216 Y85.327
G1 F3000 X72.672 Y68.783 E213.11134
G0 F10500 X73.061 Y68.464
G1 F3000 X89.535 Y84.939 E213.80525
G0 F10500 X89.849 Y84.546
G1 F3000 X73.453 Y68.150 E214.49585
G0 F10500 X73.914 Y67.904
G1 F3000 X90.096 Y84.085 E215.17741
G0 F10500 X90.342 Y83.624
G1 F3000 X74.375 Y67.658 E215.84992
G0 F10500 X74.836 Y67.412
G1 F3000 X90.588 Y83.163 E216.51338
G0 F10500 X90.834 Y82.702
G1 F3000 X75.297 Y67.165 E217.16780
G0 F10500 X75.809 Y66.970
G1 F3000 X91.029 Y82.190 E217.80886
G0 F10500 X91.194 Y81.648
G1 F3000 X76.351 Y66.806 E218.43403
G0 F10500 X76.894 Y66.641
G1 F3000 X91.358 Y81.105 E219.04326
G0 F10500 X91.523 Y80.563
G1 F3000 X77.436 Y66.476 E219.63660
G0 F10500 X78.032 Y66.365
G1 F3000 X91.634 Y79.967 E220.20952
G0 F10500 X91.697 Y79.323
G1 F3000 X78.676 Y66.302 E220.75796
G0 F10500 X79.321 Y66.239
G1 F3000 X91.760 Y78.679 E221.28192
G0 F10500 X91.824 Y78.035
G1 F3000 X79.964 Y66.176 E221.78144
G0 F10500 X80.741 Y66.246
G1 F3000 X91.754 Y77.258 E222.24529
G0 F10500 X91.677 Y76.474
G1 F3000 X81.525 Y66.323 E222.67287
G0 F10500 X82.310 Y66.400
G1 F3000 X91.599 Y75.689 E223.06412
G0 F10500 X91.291 Y74.674
G1 F3000 X83.325 Y66.708 E223.39965
G0 F10500 X84.340 Y67.016
G1 F3000 X90.983 Y73.659 E223.67945
G0 F10500 X90.265 Y72.234
G1 F3000 X85.764 Y67.733 E223.86904
;LAYER:11
G0 F10500 X92.749 Y65.251 Z4.605
;TYPE:WALL-INNER
G1 F2100 X92.749 Y90.749 E224.62845
G1 X67.251 Y90.749 E225.38787
G1 X67.251 Y65.251 E226.14729
G1 X92.749 Y65.251 E226.90670
G0 F10500 X93.249 Y64.751
;TYPE:WALL-OUTER
G1 F1800 X93.249 Y91.249 E227.69590
G1 X66.751 Y91.249 E228.48510
G1 X66.751 Y64.751 E229.27430
G1 X93.249 Y64.751 E230.06350
G0 F10500 X92.899 Y65.011
G0 X88.380 Y69.657
;TYPE:SKIN
G1 F3000 X71.656 Y86.381 E230.76792
G0 F10500 X71.335 Y85.996
G1 F3000 X87.996 Y69.334 E231.46970
G0 F10500 X87.608 Y69.015
G1 F3000 X71.016 Y85.608 E232.16858
G0 F10500 X70.697 Y85.219
G1 F3000 X87.220 Y68.696 E232.86453
G0 F10500 X86.832 Y68.377
G1 F3000 X70.378 Y84.831 E233.55757
G0 F10500 X70.083 Y84.419
G1 F3000 X86.420 Y68.082 E234.24569
G0 F10500 X85.959 Y67.836
G1 F3000 X69.837 Y83.958 E234.92475
G0 F10500 X69.591 Y83.497
G1 F3000 X85.497 Y67.590 E235.59473
G0 F10500 X85.036 Y67.344
G1 F3000 X69.345 Y83.036 E236.25566
G0 F10500 X69.099 Y82.575
G1 F3000 X84.575 Y67.098 E236.90753
G0 F10500 X84.042 Y66.924
G1 F3000 X68.925 Y82.042 E237.54428
G0 F10500 X68.761 Y81.499
G1 F3000 X83.499 Y66.760 E238.16506
G0 F10500 X82.957 Y66.596
G1 F3000 X68.596 Y80.956 E238.76993
G0 F10500 X68.432 Y80.413
G1 F3000 X82.414 Y66.431 E239.35885
G0 F10500 X81.790 Y66.348
G1 F3000 X68.348 Y79.790 E239.92503
G0 F10500 X68.284 Y79.147
G1 F3000 X81.146 Y66.284 E240.46680
G0 F10500 X80.502 Y66.221
G1 F3000 X68.220 Y78.503 E240.98412
G0 F10500 X68.187 Y77.829
G1 F3000 X79.828 Y66.188 E241.47444
G0 F10500 X79.044 Y66.265
G1 F3000 X68.265 Y77.044 E241.92845
G0 F10500 X68.343 Y76.260
G1 F3000 X78.260 Y66.342 E242.34618
G0 F10500 X77.412 Y66.483
G1 F3000 X68.484 Y75.411 E242.72222
G0 F10500 X68.792 Y74.396
G1 F3000 X76.397 Y66.791 E243.04255
G0 F10500 X75.337 Y67.144
G1 F3000 X69.145 Y73.336 E243.30335
G0 F10500 X69.954 Y71.820
G1 F3000 X73.821 Y67.952 E243.46625
G0 F10500 X88.699 Y70.045
G1 F3000 X72.044 Y86.700 E244.16776
G0 F10500 X72.433 Y87.018
G1 F3000 X89.018 Y70.434 E244.86630
G0 F10500 X89.337 Y70.822
G1 F3000 X72.822 Y87.337 E245.56192
G0 F10500 X73.210 Y87.656
G1 F3000 X89.656 Y71.210 E246.25462
G0 F10500 X89.943 Y71.630
G1 F3000 X73.630 Y87.943 E246.94173
G0 F10500 X74.091 Y88.189
G1 F3000 X90.188 Y72.092 E247.61973
G0 F10500 X90.434 Y72.553
G1 F3000 X74.552 Y88.435 E248.28868
G0 F10500 X75.013 Y88.681
G1 F3000 X90.680 Y73.014 E248.94858
G0 F10500 X90.926 Y73.475
G1 F3000 X75.474 Y88.927 E249.59942
G0 F10500 X76.016 Y89.092
G1 F3000 X91.091 Y74.017 E250.23438
G0 F10500 X91.255 Y74.560
G1 F3000 X76.559 Y89.256 E250.85338
G0 F10500 X77.102 Y89.421
G1 F3000 X91.420 Y75.103 E251.45645
G0 F10500 X91.585 Y75.645
G1 F3000 X77.644 Y89.586 E252.04365
G0 F10500 X78.278 Y89.659
G1 F3000 X91.657 Y76.280 E252.60717
G0 F10500 X91.720 Y76.924
G1 F3000 X78.922 Y89.722 E253.14622
G0 F10500 X79.565 Y89.786
G1 F3000 X91.783 Y77.568 E253.66085
G0 F10500 X91.801 Y78.257
G1 F3000 X80.255 Y89.803 E254.14716
G0 F10500 X81.040 Y89.726
G1 F3000 X91.724 Y79.041 E254.59720
G0 F10500 X91.647 Y79.825
G1 F3000 X81.824 Y89.648 E255.01094
G0 F10500 X82.698 Y89.481
G1 F3000 X91.481 Y80.699 E255.38086
G0 F10500 X91.173 Y81.713
G1 F3000 X83.713 Y89.173 E255.69508
G0 F10500 X84.828 Y88.765
G1 F3000 X90.765 Y82.829 E255.94512
G0 F10500 X89.956 Y84.345
G1 F3000 X86.344 Y87.957 E256.09726
;LAYER:12
G0 F10500 X92.749 Y90.749 Z4.985
;TYPE:WALL-INNER
G1 F2100 X67.251 Y90.749 E256.85668
G1 X67.251 Y65.251 E257.61609
G1 X92.749 Y65.251 E258.37551
G1 X92.749 Y90.749 E259.13493
G0 F10500 X93.249 Y91.249
;TYPE:WALL-OUTER
G1 F1800 X66.751 Y91.249 E259.92413
G1 X66.751 Y64.751 E260.71333
G1 X93.249 Y64.751 E261.50253
G1 X93.249 Y91.249 E262.29173
G0 F10500 X92.899 Y90.989
G0 X88.235 Y86.467
;TYPE:SKIN
G1 F3000 X71.530 Y69.763 E262.99532
G0 F10500 X71.896 Y69.421
G1 F3000 X88.578 Y86.103 E263.69797
G0 F10500 X88.897 Y85.715
G1 F3000 X72.284 Y69.102 E264.39771
G0 F10500 X72.672 Y68.783
G1 F3000 X89.216 Y85.327 E265.09454
G0 F10500 X89.535 Y84.939
G1 F3000 X73.061 Y68.464 E265.78845
G0 F10500 X73.453 Y68.150
G1 F3000 X89.849 Y84.546 E266.47905
G0 F10500 X90.096 Y84.085
G1 F3000 X73.914 Y67.904 E267.16062
G0 F10500 X74.375 Y67.658
G1 F3000 X90.342 Y83.624 E267.83313
G0 F10500 X90.588 Y83.163
G1 F3000 X74.836 Y67.412 E268.49658
G0 F10500 X75.297 Y67.165
G1 F3000 X90.834 Y82.702 E269.15100
G0 F10500 X91.029 Y82.190
G1 F3000 X75.809 Y66.970 E269.79207
G0 F10500 X76.351 Y66.806
G1 F3000 X91.194 Y81.648 E270.41723
G0 F10500 X91.358 Y81.105
G1 F3000 X76.894 Y66.641 E271.02646
G0 F10500 X77.436 Y66.476
G1 F3000 X91.523 Y80.563 E271.61980
G0 F10500 X87.847 Y86.786
G1 F3000 X71.212 Y70.151 E272.32047
G0 F10500 X70.893 Y70.539
G1 F3000 X87.459 Y87.105 E273.01823
G0 F10500 X87.071 Y87.424
G1 F3000 X70.574 Y70.927 E273.71309
G0 F10500 X70.254 Y71.315
G1 F3000 X86.683 Y87.744 E274.40508
G0 F10500 X86.242 Y88.010
G1 F3000 X69.988 Y71.755 E275.08972
G0 F10500 X69.741 Y72.216
G1 F3000 X85.781 Y88.256 E275.76532
G0 F10500 X85.320 Y88.502
G1 F3000 X69.495 Y72.677 E276.43187
G0 F10500 X69.249 Y73.138
G1 F3000 X84.859 Y88.748 E277.08937
G0 F10500 X84.376 Y88.972
G1 F3000 X69.026 Y73.622 E277.73591
G0 F10500 X68.861 Y74.164
G1 F3000 X83.833 Y89.137 E278.36655
G0 F10500 X83.290 Y89.301
G1 F3000 X68.697 Y74.707 E278.98123
G0 F10500 X68.532 Y75.250
G1 F3000 X82.748 Y89.465 E279.57999
G0 F10500 X82.187 Y89.611
G1 F3000 X68.387 Y75.811 E280.16125
G0 F10500 X68.323 Y76.455
G1 F3000 X81.543 Y89.675 E280.71807
G0 F10500 X80.900 Y89.738
G1 F3000 X68.259 Y77.098 E281.25049
G0 F10500 X68.196 Y77.742
G1 F3000 X80.256 Y89.802 E281.75846
G0 F10500 X79.529 Y89.782
G1 F3000 X68.216 Y78.469 E282.23497
G0 F10500 X68.294 Y79.254
G1 F3000 X78.744 Y89.704 E282.67512
G0 F10500 X77.959 Y89.626
G1 F3000 X68.372 Y80.039 E283.07892
G0 F10500 X68.602 Y80.976
G1 F3000 X77.022 Y89.396 E283.43358
G0 F10500 X76.007 Y89.089
G1 F3000 X68.909 Y81.991 E283.73254
G0 F10500 X69.455 Y83.244
G1 F3000 X74.753 Y88.542 E283.95570
G0 F10500 X72.930 Y87.425
G1 F3000 X70.572 Y85.067 E284.05501
G0 F10500 X78.032 Y66.365
G1 F3000 X91.634 Y79.967 E284.62793
G0 F10500 X91.697 Y79.323
G1 F3000 X78.676 Y66.302 E285.17638
G0 F10500 X79.321 Y66.239
G1 F3000 X91.760 Y78.679 E285.70033
G0 F10500 X91.824 Y78.035
G1 F3000 X79.964 Y66.176 E286.19985
G0 F10500 X80.741 Y66.246
G1 F3000 X91.754 Y77.258 E286.66370
G0 F10500 X91.677 Y76.474
G1 F3000 X81.525 Y66.323 E287.09128
G0 F10500 X82.310 Y66.400
G1 F3000 X91.599 Y75.689 E287.48254
G0 F10500 X91.291 Y74.674
G1 F3000 X83.325 Y66.708 E287.81806
G0 F10500 X84.340 Y67.016
G1 F3000 X90.983 Y73.659 E288.09787
G0 F10500 X90.265 Y72.234
G1 F3000 X85.764 Y67.733 E288.28745
;LAYER:13
M106 S249
G0 F10500 X86.530 Y68.227 Z5.365
;TYPE:WALL-INNER
G1 F1080 X84.497 Y67.142 E288.35608
G1 X82.292 Y66.473 E288.42471
G1 X80.000 Y66.247 E288.49331
G1 X77.708 Y66.473 E288.56190
G1 X75.503 Y67.142 E288.63053
G1 X73.470 Y68.227 E288.69916
G1 X71.689 Y69.689 E288.76779
G1 X70.227 Y71.470 E288.83642
G1 X69.142 Y73.503 E288.90505
G1 X68.473 Y75.708 E288.97368
G1 X68.246 Y78.000 E289.04228
G1 X68.473 Y80.293 E289.11090
G1 X69.142 Y82.497 E289.17950
G1 X70.227 Y84.530 E289.24814
G1 X71.689 Y86.311 E289.31676
G1 X73.470 Y87.773 E289.38539
G1 X75.503 Y88.858 E289.45402
G1 X77.708 Y89.527 E289.52265
G1 X80.000 Y89.754 E289.59125
G1 X82.292 Y89.527 E289.65985
G1 X84.497 Y88.858 E289.72848
G1 X86.530 Y87.773 E289.79711
G1 X88.311 Y86.311 E289.86574
G1 X89.773 Y84.530 E289.93436
G1 X90.858 Y82.497 E290.00300
G1 X91.527 Y80.292 E290.07162
G1 X91.753 Y78.000 E290.14022
G1 X91.527 Y75.708 E290.20881
G1 X90.858 Y73.503 E290.27744
G1 X89.773 Y71.470 E290.34608
G1 X88.311 Y69.689 E290.41470
G1 X86.530 Y68.227 E290.48333
G0 F10500 X92.749 Y65.251
G1 F1080 X92.749 Y90.749 E291.24275
G1 X67.251 Y90.749 E292.00216
G1 X67.251 Y65.251 E292.76158
G1 X92.749 Y65.251 E293.52100
G0 F10500 X93.249 Y64.751
;TYPE:WALL-OUTER
G1 F960 X93.249 Y91.249 E294.31020
G1 X66.751 Y91.249 E295.09940
G1 X66.751 Y64.751 E295.88860
G1 X93.249 Y64.751 E296.67780
G0 F10500 X92.899 Y65.011
G0 X88.226 Y69.824
G0 X87.956 Y70.044
G1 F960 X86.251 Y68.645 E296.74348
G1 X84.305 Y67.606 E296.80919
G1 X82.194 Y66.966 E296.87489
G1 X80.000 Y66.750 E296.94055
G1 X77.806 Y66.966 E297.00621
G1 X75.695 Y67.606 E297.07191
G1 X73.749 Y68.645 E297.13761
G1 X72.044 Y70.044 E297.20329
G1 X70.645 Y71.749 E297.26898
G1 X69.606 Y73.695 E297.33468
G1 X68.966 Y75.806 E297.40038
G1 X68.749 Y78.000 E297.46605
G1 X68.966 Y80.195 E297.53174
G1 X69.606 Y82.305 E297.59741
G1 X70.645 Y84.251 E297.66311
G1 X72.044 Y85.956 E297.72880
G1 X73.749 Y87.355 E297.79449
G1 X75.695 Y88.394 E297.86019
G1 X77.806 Y89.034 E297.92589
G1 X80.000 Y89.251 E297.99155
G1 X82.194 Y89.034 E298.05721
G1 X84.305 Y88.394 E298.12291
G1 X86.251 Y87.355 E298.18861
G1 X87.956 Y85.956 E298.25430
G1 X89.355 Y84.251 E298.31999
G1 X90.394 Y82.305 E298.38569
G1 X91.034 Y80.194 E298.45139
G1 X91.250 Y78.000 E298.51705
G1 X91.034 Y75.806 E298.58271
G1 X90.394 Y73.695 E298.64841
G1 X89.355 Y71.749 E298.71411
G1 X87.956 Y70.044 E298.77980
G0 F10500 X88.922 Y69.254
;LAYER:14
G0 X88.311 Y69.689 Z5.745
;TYPE:WALL-INNER
G1 F1080 X86.530 Y68.227 E298.84843
G1 X84.497 Y67.142 E298.91706
G1 X82.292 Y66.473 E298.98569
G1 X80.000 Y66.247 E299.05428
G1 X77.708 Y66.473 E299.12288
G1 X75.503 Y67.142 E299.19151
G1 X73.470 Y68.227 E299.26014
G1 X71.689 Y69.689 E299.32877
G1 X70.227 Y71.470 E299.39739
G1 X69.142 Y73.503 E299.46603
G1 X68.473 Y75.708 E299.53466
G1 X68.246 Y78.000 E299.60325
G1 X68.473 Y80.293 E299.67188
G1 X69.142 Y82.497 E299.74048
G1 X70.227 Y84.530 E299.80911
G1 X71.689 Y86.311 E299.87774
G1 X73.470 Y87.773 E299.94637
G1 X75.503 Y88.858 E300.01500
G1 X77.708 Y89.527 E300.08363
G1 X80.000 Y89.754 E300.15223
G1 X82.292 Y89.527 E300.22082
G1 X84.497 Y88.858 E300.28945
G1 X86.530 Y87.773 E300.35809
G1 X88.311 Y86.311 E300.42671
G1 X89.773 Y84.530 E300.49534
G1 X90.858 Y82.497 E300.56397
G1 X91.527 Y80.292 E300.63260
G1 X91.753 Y78.000 E300.70120
G1 X91.527 Y75.708 E300.76979
G1 X90.858 Y73.503 E300.83842
G1 X89.773 Y71.470 E300.90705
G1 X88.311 Y69.689 E300.97568
G0 F10500 X92.749 Y65.251
G1 F1080 X92.749 Y90.749 E301.73510
G1 X67.251 Y90.749 E302.49451
G1 X67.251 Y65.251 E303.25393
G1 X92.749 Y65.251 E304.01335
G0 F10500 X93.249 Y64.751
;TYPE:WALL-OUTER
G1 F960 X93.249 Y91.249 E304.80255
G1 X66.751 Y91.249 E305.59175
G1 X66.751 Y64.751 E306.38095
G1 X93.249 Y64.751 E307.17015
G0 F10500 X92.899 Y65.011
G0 X88.226 Y69.824
G0 X87.956 Y70.044
G1 F960 X86.251 Y68.645 E307.23583
G1 X84.305 Y67.606 E307.30154
G1 X82.194 Y66.966 E307.36724
G1 X80.000 Y66.750 E307.43290
G1 X77.806 Y66.966 E307.49856
G1 X75.695 Y67.606 E307.56426
G1 X73.749 Y68.645 E307.62996
G1 X72.044 Y70.044 E307.69564
G1 X70.645 Y71.749 E307.76133
G1 X69.606 Y73.695 E307.82703
G1 X68.966 Y75.806 E307.89273
G1 X68.749 Y78.000 E307.95840
G1 X68.966 Y80.195 E308.02409
G1 X69.606 Y82.305 E308.08976
G1 X70.645 Y84.251 E308.15546
G1 X72.044 Y85.956 E308.22115
G1 X73.749 Y87.355 E308.28684
G1 X75.695 Y88.394 E308.35254
G1 X77.806 Y89.034 E308.41824
G1 X80.000 Y89.251 E308.48390
G1 X82.194 Y89.034 E308.54956
G1 X84.305 Y88.394 E308.61526
G1 X86.251 Y87.355 E308.68096
G1 X87.956 Y85.956 E308.74665
G1 X89.355 Y84.251 E308.81234
G1 X90.394 Y82.305 E308.87804
G1 X91.034 Y80.194 E308.94374
G1 X91.250 Y78.000 E309.00940
G1 X91.034 Y75.806 E309.07506
G1 X90.394 Y73.695 E309.14076
G1 X89.355 Y71.749 E309.20646
G1 X87.956 Y70.044 E309.27215
G0 F10500 X88.922 Y69.254
;LAYER:15
G0 X88.311 Y69.689 Z6.125
;TYPE:WALL-INNER
G1 F1080 X86.530 Y68.227 E309.34078
G1 X84.497 Y67.142 E309.40941
G1 X82.292 Y66.473 E309.47804
G1 X80.000 Y66.247 E309.54663
G1 X77.708 Y66.473 E309.61523
G1 X75.503 Y67.142 E309.68386
G1 X73.470 Y68.227 E309.75249
G1 X71.689 Y69.689 E309.82112
G1 X70.227 Y71.470 E309.88974
G1 X69.142 Y73.503 E309.95838
G1 X68.473 Y75.708 E310.02701
G1 X68.246 Y78.000 E310.09560
G1 X68.473 Y80.293 E310.16423
G1 X69.142 Y82.497 E310.23283
G1 X70.227 Y84.530 E310.30146
G1 X71.689 Y86.311 E310.37009
G1 X73.470 Y87.773 E310.43872
G1 X75.503 Y88.858 E310.50735
G1 X77.708 Y89.527 E310.57598
G1 X80.000 Y89.754 E310.64458
G1 X82.292 Y89.527 E310.71317
G1 X84.497 Y88.858 E310.78180
G1 X86.530 Y87.773 E310.85044
G1 X88.311 Y86.311 E310.91906
G1 X89.773 Y84.530 E310.98769
G1 X90.858 Y82.497 E311.05632
G1 X91.527 Y80.292 E311.12495
G1 X91.753 Y78.000 E311.19355
G1 X91.527 Y75.708 E311.26214
G1 X90.858 Y73.503 E311.33077
G1 X89.773 Y71.470 E311.39940
G1 X88.311 Y69.689 E311.46803
G0 F10500 X92.749 Y65.251
G1 F1080 X92.749 Y90.749 E312.22745
G1 X67.251 Y90.749 E312.98686
G1 X67.251 Y65.251 E313.74628
G1 X92.749 Y65.251 E314.50570
G0 F10500 X93.249 Y64.751
;TYPE:WALL-OUTER
G1 F960 X93.249 Y91.249 E315.29490
G1 X66.751 Y91.249 E316.08410
G1 X66.751 Y64.751 E316.87330
G1 X93.249 Y64.751 E317.66250
G0 F10500 X92.899 Y65.011
G0 X88.226 Y69.824
G0 X87.956 Y70.044
G1 F960 X86.251 Y68.645 E317.72818
G1 X84.305 Y67.606 E317.79389
G1 X82.194 Y66.966 E317.85958
G1 X80.000 Y66.750 E317.92525
G1 X77.806 Y66.966 E317.99091
G1 X75.695 Y67.606 E318.05660
G1 X73.749 Y68.645 E318.12231
G1 X72.044 Y70.044 E318.18799
G1 X70.645 Y71.749 E318.25368
G1 X69.606 Y73.695 E318.31938
G1 X68.966 Y75.806 E318.38508
G1 X68.749 Y78.000 E318.45075
G1 X68.966 Y80.195 E318.51644
G1 X69.606 Y82.305 E318.58211
G1 X70.645 Y84.251 E318.64781
G1 X72.044 Y85.956 E318.71350
G1 X73.749 Y87.355 E318.77919
G1 X75.695 Y88.394 E318.84489
G1 X77.806 Y89.034 E318.91059
G1 X80.000 Y89.251 E318.97625
G1 X82.194 Y89.034 E319.04191
G1 X84.305 Y88.394 E319.10761
G1 X86.251 Y87.355 E319.17331
G1 X87.956 Y85.956 E319.23900
G1 X89.355 Y84.251 E319.30469
G1 X90.394 Y82.305 E319.37039
G1 X91.034 Y80.194 E319.43609
G1 X91.250 Y78.000 E319.50175
G1 X91.034 Y75.806 E319.56741
G1 X90.394 Y73.695 E319.63311
G1 X89.355 Y71.749 E319.69881
G1 X87.956 Y70.044 E319.76450
G0 F10500 X88.922 Y69.254
;LAYER:16
G0 X88.311 Y69.689 Z6.505
;TYPE:WALL-INNER
G1 F1080 X86.530 Y68.227 E319.83313
G1 X84.497 Y67.142 E319.90176
G1 X82.292 Y66.473 E319.97039
G1 X80.000 Y66.247 E320.03898
G1 X77.708 Y66.473 E320.10758
G1 X75.503 Y67.142 E320.17621
G1 X73.470 Y68.227 E320.24484
G1 X71.689 Y69.689 E320.31347
G1 X70.227 Y71.470 E320.38209
G1 X69.142 Y73.503 E320.45073
G1 X68.473 Y75.708 E320.51936
G1 X68.246 Y78.000 E320.58795
G1 X68.473 Y80.293 E320.65658
G1 X69.142 Y82.497 E320.72518
G1 X70.227 Y84.530 E320.79381
G1 X71.689 Y86.311 E320.86244
G1 X73.470 Y87.773 E320.93107
G1 X75.503 Y88.858 E320.99970
G1 X77.708 Y89.527 E321.06833
G1 X80.000 Y89.754 E321.13693
G1 X82.292 Y89.527 E321.20552
G1 X84.497 Y88.858 E321.27415
G1 X86.530 Y87.773 E321.34279
G1 X88.311 Y86.311 E321.41141
G1 X89.773 Y84.530 E321.48004
G1 X90.858 Y82.497 E321.54867
G1 X91.527 Y80.292 E321.61730
G1 X91.753 Y78.000 E321.68590
G1 X91.527 Y75.708 E321.75449
G1 X90.858 Y73.503 E321.82312
G1 X89.773 Y71.470 E321.89175
G1 X88.311 Y69.689 E321.96038
G0 F10500 X92.749 Y65.251
G1 F1080 X92.749 Y90.749 E322.71980
G1 X67.251 Y90.749 E323.47921
G1 X67.251 Y65.251 E324.23863
G1 X92.749 Y65.251 E324.99805
G0 F10500 X93.249 Y64.751
;TYPE:WALL-OUTER
G1 F960 X93.249 Y91.249 E325.78725
G1 X66.751 Y91.249 E326.57645
G1 X66.751 Y64.751 E327.36565
G1 X93.249 Y64.751 E328.15485
G0 F10500 X92.899 Y65.011
G0 X88.226 Y69.824
G0 X87.956 Y70.044
G1 F960 X86.251 Y68.645 E328.22053
G1 X84.305 Y67.606 E328.28624
G1 X82.194 Y66.966 E328.35193
G1 X80.000 Y66.750 E328.41760
G1 X77.806 Y66.966 E328.48326
G1 X75.695 Y67.606 E328.54895
G1 X73.749 Y68.645 E328.61466
G1 X72.044 Y70.044 E328.68034
G1 X70.645 Y71.749 E328.74603
G1 X69.606 Y73.695 E328.81173
G1 X68.966 Y75.806 E328.87743
G1 X68.749 Y78.000 E328.94310
G1 X68.966 Y80.195 E329.00879
G1 X69.606 Y82.305 E329.07446
G1 X70.645 Y84.251 E329.14016
G1 X72.044 Y85.956 E329.20585
G1 X73.749 Y87.355 E329.27154
G1 X75.695 Y88.394 E329.33724
G1 X77.806 Y89.034 E329.40294
G1 X80.000 Y89.251 E329.46860
G1 X82.194 Y89.034 E329.53426
G1 X84.305 Y88.394 E329.59996
G1 X86.251 Y87.355 E329.66566
G1 X87.956 Y85.956 E329.73135
G1 X89.355 Y84.251 E329.79704
G1 X90.394 Y82.305 E329.86274
G1 X91.034 Y80.194 E329.92844
G1 X91.250 Y78.000 E329.99410
G1 X91.034 Y75.806 E330.05976
G1 X90.394 Y73.695 E330.12546
G1 X89.355 Y71.749 E330.19116
G1 X87.956 Y70.044 E330.25685
G0 F10500 X88.922 Y69.254
;LAYER:17
G0 X88.311 Y69.689 Z6.885
;TYPE:WALL-INNER
G1 F1080 X86.530 Y68.227 E330.32548
G1 X84.497 Y67.142 E330.39411
G1 X82.292 Y66.473 E330.46274
G1 X80.000 Y66.247 E330.53133
G1 X77.708 Y66.473 E330.59993
G1 X75.503 Y67.142 E330.66856
G1 X73.470 Y68.227 E330.73719
G1 X71.689 Y69.689 E330.80582
G1 X70.227 Y71.470 E330.87444
G1 X69.142 Y73.503 E330.94308
G1 X68.473 Y75.708 E331.01171
G1 X68.246 Y78.000 E331.08030
G1 X68.473 Y80.293 E331.14893
G1 X69.142 Y82.497 E331.21753
G1 X70.227 Y84.530 E331.28616
G1 X71.689 Y86.311 E331.35479
G1 X73.470 Y87.773 E331.42342
G1 X75.503 Y88.858 E331.49205
G1 X77.708 Y89.527 E331.56068
G1 X80.000 Y89.754 E331.62928
G1 X82.292 Y89.527 E331.69787
G1 X84.497 Y88.858 E331.76650
G1 X86.530 Y87.773 E331.83514
G1 X88.311 Y86.311 E331.90376
G1 X89.773 Y84.530 E331.97239
G1 X90.858 Y82.497 E332.04102
G1 X91.527 Y80.292 E332.10965
G1 X91.753 Y78.000 E332.17825
G1 X91.527 Y75.708 E332.24684
G1 X90.858 Y73.503 E332.31547
G1 X89.773 Y71.470 E332.38410
G1 X88.311 Y69.689 E332.45273
G0 F10500 X92.749 Y65.251
G1 F1080 X92.749 Y90.749 E333.21215
G1 X67.251 Y90.749 E333.97156
G1 X67.251 Y65.251 E334.73098
G1 X92.749 Y65.251 E335.49040
G0 F10500 X93.249 Y64.751
;TYPE:WALL-OUTER
G1 F960 X93.249 Y91.249 E336.27960
G1 X66.751 Y91.249 E337.06880
G1 X66.751 Y64.751 E337.85800
G1 X93.249 Y64.751 E338.64720
G0 F10500 X92.899 Y65.011
G0 X88.226 Y69.824
G0 X87.956 Y70.044
G1 F960 X86.251 Y68.645 E338.71288
G1 X84.305 Y67.606 E338.77859
G1 X82.194 Y66.966 E338.84428
G1 X80.000 Y66.750 E338.90995
G1 X77.806 Y66.966 E338.97561
G1 X75.695 Y67.606 E339.04130
G1 X73.749 Y68.645 E339.10701
G1 X72.044 Y70.044 E339.17269
G1 X70.645 Y71.749 E339.23838
G1 X69.606 Y73.695 E339.30408
G1 X68.966 Y75.806 E339.36978
G1 X68.749 Y78.000 E339.43545
G1 X68.966 Y80.195 E339.50114
G1 X69.606 Y82.305 E339.56681
G1 X70.645 Y84.251 E339.63251
G1 X72.044 Y85.956 E339.69820
G1 X73.749 Y87.355 E339.76389
G1 X75.695 Y88.394 E339.82959
G1 X77.806 Y89.034 E339.89529
G1 X80.000 Y89.251 E339.96095
G1 X82.194 Y89.034 E340.02661
G1 X84.305 Y88.394 E340.09231
G1 X86.251 Y87.355 E340.15801
G1 X87.956 Y85.956 E340.22370
G1 X89.355 Y84.251 E340.28939
G1 X90.394 Y82.305 E340.35509
G1 X91.034 Y80.194 E340.42079
G1 X91.250 Y78.000 E340.48645
G1 X91.034 Y75.806 E340.55211
G1 X90.394 Y73.695 E340.61781
G1 X89.355 Y71.749 E340.68351
G1 X87.956 Y70.044 E340.74920
G0 F10500 X88.922 Y69.254
;LAYER:18
G0 X88.311 Y69.689 Z7.265
;TYPE:WALL-INNER
G1 F1080 X86.530 Y68.227 E340.81783
G1 X84.497 Y67.142 E340.88646
G1 X82.292 Y66.473 E340.95509
G1 X80.000 Y66.247 E341.02368
G1 X77.708 Y66.473 E341.09228
G1 X75.503 Y67.142 E341.16091
G1 X73.470 Y68.227 E341.22954
G1 X71.689 Y69.689 E341.29817
G1 X70.227 Y71.470 E341.36679
G1 X69.142 Y73.503 E341.43543
G1 X68.473 Y75.708 E341.50406
G1 X68.246 Y78.000 E341.57265
G1 X68.473 Y80.293 E341.64128
G1 X69.142 Y82.497 E341.70988
G1 X70.227 Y84.530 E341.77851
G1 X71.689 Y86.311 E341.84714
G1 X73.470 Y87.773 E341.91577
G1 X75.503 Y88.858 E341.98440
G1 X77.708 Y89.527 E342.05303
G1 X80.000 Y89.754 E342.12163
G1 X82.292 Y89.527 E342.19022
G1 X84.497 Y88.858 E342.25885
G1 X86.530 Y87.773 E342.32749
G1 X88.311 Y86.311 E342.39611
G1 X89.773 Y84.530 E342.46474
G1 X90.858 Y82.497 E342.53337
G1 X91.527 Y80.292 E342.60200
G1 X91.753 Y78.000 E342.67060
G1 X91.527 Y75.708 E342.73919
G1 X90.858 Y73.503 E342.80782
G1 X89.773 Y71.470 E342.87645
G1 X88.311 Y69.689 E342.94508
G0 F10500 X92.749 Y65.251
G1 F1080 X92.749 Y90.749 E343.70450
G1 X67.251 Y90.749 E344.46391
G1 X67.251 Y65.251 E345.22333
G1 X92.749 Y65.251 E345.98275
G0 F10500 X93.249 Y64.751
;TYPE:WALL-OUTER
G1 F960 X93.249 Y91.249 E346.77195
G1 X66.751 Y91.249 E347.56115
G1 X66.751 Y64.751 E348.35035
G1 X93.249 Y64.751 E349.13955
G0 F10500 X92.899 Y65.011
G0 X88.226 Y69.824
G0 X87.956 Y70.044
G1 F960 X86.251 Y68.645 E349.20523
G1 X84.305 Y67.606 E349.27094
G1 X82.194 Y66.966 E349.33663
G1 X80.000 Y66.750 E349.40230
G1 X77.806 Y66.966 E349.46796
G1 X75.695 Y67.606 E349.53365
G1 X73.749 Y68.645 E349.59936
G1 X72.044 Y70.044 E349.66504
G1 X70.645 Y71.749 E349.73073
G1 X69.606 Y73.695 E349.79643
G1 X68.966 Y75.806 E349.86213
G1 X68.749 Y78.000 E349.92780
G1 X68.966 Y80.195 E349.99349
G1 X69.606 Y82.305 E350.05916
G1 X70.645 Y84.251 E350.12486
G1 X72.044 Y85.956 E350.19055
G1 X73.749 Y87.355 E350.25624
G1 X75.695 Y88.394 E350.32194
G1 X77.806 Y89.034 E350.38764
G1 X80.000 Y89.251 E350.45330
G1 X82.194 Y89.034 E350.51896
G1 X84.305 Y88.394 E350.58466
G1 X86.251 Y87.355 E350.65036
G1 X87.956 Y85.956 E350.71605
G1 X89.355 Y84.251 E350.78174
G1 X90.394 Y82.305 E350.84744
G1 X91.034 Y80.194 E350.91314
G1 X91.250 Y78.000 E350.97880
G1 X91.034 Y75.806 E351.04446
G1 X90.394 Y73.695 E351.11016
G1 X89.355 Y71.749 E351.17586
G1 X87.956 Y70.044 E351.24155
G0 F10500 X88.922 Y69.254
;LAYER:19
G0 X88.311 Y69.689 Z7.645
;TYPE:WALL-INNER
G1 F1080 X86.530 Y68.227 E351.31018
G1 X84.497 Y67.142 E351.37881
G1 X82.292 Y66.473 E351.44744
G1 X80.000 Y66.247 E351.51603
G1 X77.708 Y66.473 E351.58463
G1 X75.503 Y67.142 E351.65326
G1 X73.470 Y68.227 E351.72189
G1 X71.689 Y69.689 E351.79052
G1 X70.227 Y71.470 E351.85914
G1 X69.142 Y73.503 E351.92778
G1 X68.473 Y75.708 E351.99640
G1 X68.246 Y78.000 E352.06500
G1 X68.473 Y80.293 E352.13363
G1 X69.142 Y82.497 E352.20223
G1 X70.227 Y84.530 E352.27086
G1 X71.689 Y86.311 E352.33949
G1 X73.470 Y87.773 E352.40812
G1 X75.503 Y88.858 E352.47675
G1 X77.708 Y89.527 E352.54538
G1 X80.000 Y89.754 E352.61398
G1 X82.292 Y89.527 E352.68257
G1 X84.497 Y88.858 E352.75120
G1 X86.530 Y87.773 E352.81984
G1 X88.311 Y86.311 E352.88846
G1 X89.773 Y84.530 E352.95709
G1 X90.858 Y82.497 E353.02572
G1 X91.527 Y80.292 E353.09435
G1 X91.753 Y78.000 E353.16295
G1 X91.527 Y75.708 E353.23154
G1 X90.858 Y73.503 E353.30017
G1 X89.773 Y71.470 E353.36880
G1 X88.311 Y69.689 E353.43743
G0 F10500 X92.749 Y65.251
G1 F1080 X92.749 Y90.749 E354.19685
G1 X67.251 Y90.749 E354.95626
G1 X67.251 Y65.251 E355.71568
G1 X92.749 Y65.251 E356.47510
G0 F10500 X93.249 Y64.751
;TYPE:WALL-OUTER
G1 F960 X93.249 Y91.249 E357.26430
G1 X66.751 Y91.249 E358.05350
G1 X66.751 Y64.751 E358.84270
G1 X93.249 Y64.751 E359.63190
G0 F10500 X92.899 Y65.011
G0 X88.226 Y69.824
G0 X87.956 Y70.044
G1 F960 X86.251 Y68.645 E359.69758
G1 X84.305 Y67.606 E359.76329
G1 X82.194 Y66.966 E359.82898
G1 X80.000 Y66.750 E359.89465
G1 X77.806 Y66.966 E359.96031
G1 X75.695 Y67.606 E360.02600
G1 X73.749 Y68.645 E360.09171
G1 X72.044 Y70.044 E360.15739
G1 X70.645 Y71.749 E360.22308
G1 X69.606 Y73.695 E360.28878
G1 X68.966 Y75.806 E360.35448
G1 X68.749 Y78.000 E360.42015
G1 X68.966 Y80.195 E360.48584
G1 X69.606 Y82.305 E360.55151
G1 X70.645 Y84.251 E360.61721
G1 X72.044 Y85.956 E360.68290
G1 X73.749 Y87.355 E360.74859
G1 X75.695 Y88.394 E360.81429
G1 X77.806 Y89.034 E360.87999
G1 X80.000 Y89.251 E360.94565
G1 X82.194 Y89.034 E361.01131
G1 X84.305 Y88.394 E361.07701
G1 X86.251 Y87.355 E361.14271
G1 X87.956 Y85.956 E361.20840
G1 X89.355 Y84.251 E361.27409
G1 X90.394 Y82.305 E361.33979
G1 X91.034 Y80.194 E361.40549
G1 X91.250 Y78.000 E361.47115
G1 X91.034 Y75.806 E361.53681
G1 X90.394 Y73.695 E361.60251
G1 X89.355 Y71.749 E361.66821
G1 X87.956 Y70.044 E361.73390
G0 F10500 X88.922 Y69.254
;LAYER:20
G0 X88.311 Y69.689 Z8.025
;TYPE:WALL-INNER
G1 F1080 X86.530 Y68.227 E361.80253
G1 X84.497 Y67.142 E361.87116
G1 X82.292 Y66.473 E361.93979
G1 X80.000 Y66.247 E362.00838
G1 X77.708 Y66.473 E362.07698
G1 X75.503 Y67.142 E362.14561
G1 X73.470 Y68.227 E362.21424
G1 X71.689 Y69.689 E362.28287
G1 X70.227 Y71.470 E362.35149
G1 X69.142 Y73.503 E362.42013
G1 X68.473 Y75.708 E362.48875
G1 X68.246 Y78.000 E362.55735
G1 X68.473 Y80.293 E362.62598
G1 X69.142 Y82.497 E362.69458
G1 X70.227 Y84.530 E362.76321
G1 X71.689 Y86.311 E362.83184
G1 X73.470 Y87.773 E362.90047
G1 X75.503 Y88.858 E362.96910
G1 X77.708 Y89.527 E363.03773
G1 X80.000 Y89.754 E363.10633
G1 X82.292 Y89.527 E363.17492
G1 X84.497 Y88.858 E363.24355
G1 X86.530 Y87.773 E363.31219
G1 X88.311 Y86.311 E363.38081
G1 X89.773 Y84.530 E363.44944
G1 X90.858 Y82.497 E363.51807
G1 X91.527 Y80.292 E363.58670
G1 X91.753 Y78.000 E363.65530
G1 X91.527 Y75.708 E363.72389
G1 X90.858 Y73.503 E363.79252
G1 X89.773 Y71.470 E363.86115
G1 X88.311 Y69.689 E363.92978
G0 F10500 X92.749 Y65.251
G1 F1080 X92.749 Y90.749 E364.68920
G1 X67.251 Y90.749 E365.44861
G1 X67.251 Y65.251 E366.20803
G1 X92.749 Y65.251 E366.96745
G0 F10500 X93.249 Y64.751
;TYPE:WALL-OUTER
G1 F960 X93.249 Y91.249 E367.75665
G1 X66.751 Y91.249 E368.54585
G1 X66.751 Y64.751 E369.33505
G1 X93.249 Y64.751 E370.12425
G0 F10500 X92.899 Y65.011
G0 X88.226 Y69.824
G0 X87.956 Y70.044
G1 F960 X86.251 Y68.645 E370.18993
G1 X84.305 Y67.606 E370.25564
G1 X82.194 Y66.966 E370.32133
G1 X80.000 Y66.750 E370.38700
G1 X77.806 Y66.966 E370.45266
G1 X75.695 Y67.606 E370.51835
G1 X73.749 Y68.645 E370.58406
G1 X72.044 Y70.044 E370.64974
G1 X70.645 Y71.749 E370.71543
G1 X69.606 Y73.695 E370.78113
G1 X68.966 Y75.806 E370.84683
G1 X68.749 Y78.000 E370.91250
G1 X68.966 Y80.195 E370.97819
G1 X69.606 Y82.305 E371.04386
G1 X70.645 Y84.251 E371.10956
G1 X72.044 Y85.956 E371.17525
G1 X73.749 Y87.355 E371.24094
G1 X75.695 Y88.394 E371.30664
G1 X77.806 Y89.034 E371.37234
G1 X80.000 Y89.251 E371.43800
G1 X82.194 Y89.034 E371.50366
G1 X84.305 Y88.394 E371.56936
G1 X86.251 Y87.355 E371.63506
G1 X87.956 Y85.956 E371.70075
G1 X89.355 Y84.251 E371.76644
G1 X90.394 Y82.305 E371.83214
G1 X91.034 Y80.194 E371.89784
G1 X91.250 Y78.000 E371.96350
G1 X91.034 Y75.806 E372.02916
G1 X90.394 Y73.695 E372.09486
G1 X89.355 Y71.749 E372.16056
G1 X87.956 Y70.044 E372.22625
G0 F10500 X88.922 Y69.254
;LAYER:21
G0 X88.311 Y69.689 Z8.405
;TYPE:WALL-INNER
G1 F1080 X86.530 Y68.227 E372.29488
G1 X84.497 Y67.142 E372.36351
G1 X82.292 Y66.473 E372.43214
G1 X80.000 Y66.247 E372.50073
G1 X77.708 Y66.473 E372.56933
G1 X75.503 Y67.142 E372.63796
G1 X73.470 Y68.227 E372.70659
G1 X71.689 Y69.689 E372.77522
G1 X70.227 Y71.470 E372.84384
G1 X69.142 Y73.503 E372.91248
G1 X68.473 Y75.708 E372.98110
G1 X68.246 Y78.000 E373.04970
G1 X68.473 Y80.293 E373.11833
G1 X69.142 Y82.497 E373.18693
G1 X70.227 Y84.530 E373.25556
G1 X71.689 Y86.311 E373.32419
G1 X73.470 Y87.773 E373.39282
G1 X75.503 Y88.858 E373.46145
G1 X77.708 Y89.527 E373.53008
G1 X80.000 Y89.754 E373.59868
G1 X82.292 Y89.527 E373.66727
G1 X84.497 Y88.858 E373.73590
G1 X86.530 Y87.773 E373.80454
G1 X88.311 Y86.311 E373.87316
G1 X89.773 Y84.530 E373.94179
G1 X90.858 Y82.497 E374.01042
G1 X91.527 Y80.292 E374.07905
G1 X91.753 Y78.000 E374.14765
G1 X91.527 Y75.708 E374.21624
G1 X90.858 Y73.503 E374.28487
G1 X89.773 Y71.470 E374.35350
G1 X88.311 Y69.689 E374.42213
G0 F10500 X92.749 Y65.251
G1 F1080 X92.749 Y90.749 E375.18155
G1 X67.251 Y90.749 E375.94096
G1 X67.251 Y65.251 E376.70038
G1 X92.749 Y65.251 E377.45980
G0 F10500 X93.249 Y64.751
;TYPE:WALL-OUTER
G1 F960 X93.249 Y91.249 E378.24900
G1 X66.751 Y91.249 E379.03820
G1 X66.751 Y64.751 E379.82740
G1 X93.249 Y64.751 E380.61660
G0 F10500 X92.899 Y65.011
G0 X88.226 Y69.824
G0 X87.956 Y70.044
G1 F960 X86.251 Y68.645 E380.68228
G1 X84.305 Y67.606 E380.74799
G1 X82.194 Y66.966 E380.81368
G1 X80.000 Y66.750 E380.87935
G1 X77.806 Y66.966 E380.94501
G1 X75.695 Y67.606 E381.01070
G1 X73.749 Y68.645 E381.07641
G1 X72.044 Y70.044 E381.14209
G1 X70.645 Y71.749 E381.20778
G1 X69.606 Y73.695 E381.27348
G1 X68.966 Y75.806 E381.33918
G1 X68.749 Y78.000 E381.40485
G1 X68.966 Y80.195 E381.47054
G1 X69.606 Y82.305 E381.53621
G1 X70.645 Y84.251 E381.60191
G1 X72.044 Y85.956 E381.66760
G1 X73.749 Y87.355 E381.73329
G1 X75.695 Y88.394 E381.79899
G1 X77.806 Y89.034 E381.86469
G1 X80.000 Y89.251 E381.93035
G1 X82.194 Y89.034 E381.99601
G1 X84.305 Y88.394 E382.06171
G1 X86.251 Y87.355 E382.12741
G1 X87.956 Y85.956 E382.19310
G1 X89.355 Y84.251 E382.25879
G1 X90.394 Y82.305 E382.32449
G1 X91.034 Y80.194 E382.39019
G1 X91.250 Y78.000 E382.45585
G1 X91.034 Y75.806 E382.52151
G1 X90.394 Y73.695 E382.58721
G1 X89.355 Y71.749 E382.65291
G1 X87.956 Y70.044 E382.71860
G0 F10500 X88.922 Y69.254
;LAYER:22
G0 X88.311 Y69.689 Z8.785
;TYPE:WALL-INNER
G1 F1080 X86.530 Y68.227 E382.78723
G1 X84.497 Y67.142 E382.85586
G1 X82.292 Y66.473 E382.92449
G1 X80.000 Y66.247 E382.99308
G1 X77.708 Y66.473 E383.06168
G1 X75.503 Y67.142 E383.13031
G1 X73.470 Y68.227 E383.19894
G1 X71.689 Y69.689 E383.26757
G1 X70.227 Y71.470 E383.33619
G1 X69.142 Y73.503 E383.40483
G1 X68.473 Y75.708 E383.47345
G1 X68.246 Y78.000 E383.54205
G1 X68.473 Y80.293 E383.61068
G1 X69.142 Y82.497 E383.67928
G1 X70.227 Y84.530 E383.74791
G1 X71.689 Y86.311 E383.81654
G1 X73.470 Y87.773 E383.88517
G1 X75.503 Y88.858 E383.95380
G1 X77.708 Y89.527 E384.02243
G1 X80.000 Y89.754 E384.09103
G1 X82.292 Y89.527 E384.15962
G1 X84.497 Y88.858 E384.22825
G1 X86.530 Y87.773 E384.29689
G1 X88.311 Y86.311 E384.36551
G1 X89.773 Y84.530 E384.43414
G1 X90.858 Y82.497 E384.50277
G1 X91.527 Y80.292 E384.57140
G1 X91.753 Y78.000 E384.64000
G1 X91.527 Y75.708 E384.70859
G1 X90.858 Y73.503 E384.77722
G1 X89.773 Y71.470 E384.84585
G1 X88.311 Y69.689 E384.91448
G0 F10500 X92.749 Y65.251
G1 F1080 X92.749 Y90.749 E385.67390
G1 X67.251 Y90.749 E386.43331
G1 X67.251 Y65.251 E387.19273
G1 X92.749 Y65.251 E387.95215
G0 F10500 X93.249 Y64.751
;TYPE:WALL-OUTER
G1 F960 X93.249 Y91.249 E388.74135
G1 X66.751 Y91.249 E389.53055
G1 X66.751 Y64.751 E390.31975
G1 X93.249 Y64.751 E391.10895
G0 F10500 X92.899 Y65.011
G0 X88.226 Y69.824
G0 X87.956 Y70.044
G1 F960 X86.251 Y68.645 E391.17463
G1 X84.305 Y67.606 E391.24034
G1 X82.194 Y66.966 E391.30603
G1 X80.000 Y66.750 E391.37170
G1 X77.806 Y66.966 E391.43736
G1 X75.695 Y67.606 E391.50305
G1 X73.749 Y68.645 E391.56876
G1 X72.044 Y70.044 E391.63444
G1 X70.645 Y71.749 E391.70013
G1 X69.606 Y73.695 E391.76583
G1 X68.966 Y75.806 E391.83153
G1 X68.749 Y78.000 E391.89720
G1 X68.966 Y80.195 E391.96289
G1 X69.606 Y82.305 E392.02856
G1 X70.645 Y84.251 E392.09426
G1 X72.044 Y85.956 E392.15995
G1 X73.749 Y87.355 E392.22564
G1 X75.695 Y88.394 E392.29134
G1 X77.806 Y89.034 E392.35704
G1 X80.000 Y89.251 E392.42270
G1 X82.194 Y89.034 E392.48836
G1 X84.305 Y88.394 E392.55406
G1 X86.251 Y87.355 E392.61976
G1 X87.956 Y85.956 E392.68545
G1 X89.355 Y84.251 E392.75114
G1 X90.394 Y82.305 E392.81684
G1 X91.034 Y80.194 E392.88254
G1 X91.250 Y78.000 E392.94820
G1 X91.034 Y75.806 E393.01386
G1 X90.394 Y73.695 E393.07956
G1 X89.355 Y71.749 E393.14526
G1 X87.956 Y70.044 E393.21095
G0 F10500 X88.922 Y69.254
;LAYER:23
G0 X88.311 Y69.689 Z9.165
;TYPE:WALL-INNER
G1 F1080 X86.530 Y68.227 E393.27958
G1 X84.497 Y67.142 E393.34821
G1 X82.292 Y66.473 E393.41684
G1 X80.000 Y66.247 E393.48543
G1 X77.708 Y66.473 E393.55403
G1 X75.503 Y67.142 E393.62266
G1 X73.470 Y68.227 E393.69129
G1 X71.689 Y69.689 E393.75992
G1 X70.227 Y71.470 E393.82854
G1 X69.142 Y73.503 E393.89718
G1 X68.473 Y75.708 E393.96580
G1 X68.246 Y78.000 E394.03440
G1 X68.473 Y80.293 E394.10303
G1 X69.142 Y82.497 E394.17163
G1 X70.227 Y84.530 E394.24026
G1 X71.689 Y86.311 E394.30889
G1 X73.470 Y87.773 E394.37752
G1 X75.503 Y88.858 E394.44615
G1 X77.708 Y89.527 E394.51478
G1 X80.000 Y89.754 E394.58338
G1 X82.292 Y89.527 E394.65197
G1 X84.497 Y88.858 E394.72060
G1 X86.530 Y87.773 E394.78924
G1 X88.311 Y86.311 E394.85786
G1 X89.773 Y84.530 E394.92649
G1 X90.858 Y82.497 E394.99512
G1 X91.527 Y80.292 E395.06375
G1 X91.753 Y78.000 E395.13235
G1 X91.527 Y75.708 E395.20094
G1 X90.858 Y73.503 E395.26957
G1 X89.773 Y71.470 E395.33820
G1 X88.311 Y69.689 E395.40683
G0 F10500 X92.749 Y65.251
G1 F1080 X92.749 Y90.749 E396.16625
G1 X67.251 Y90.749 E396.92566
G1 X67.251 Y65.251 E397.68508
G1 X92.749 Y65.251 E398.44450
G0 F10500 X93.249 Y64.751
;TYPE:WALL-OUTER
G1 F960 X93.249 Y91.249 E399.23370
G1 X66.751 Y91.249 E400.02290
G1 X66.751 Y64.751 E400.81210
G1 X93.249 Y64.751 E401.60130
G0 F10500 X92.899 Y65.011
G0 X88.226 Y69.824
G0 X87.956 Y70.044
G1 F960 X86.251 Y68.645 E401.66698
G1 X84.305 Y67.606 E401.73269
G1 X82.194 Y66.966 E401.79838
G1 X80.000 Y66.750 E401.86405
G1 X77.806 Y66.966 E401.92971
G1 X75.695 Y67.606 E401.99540
G1 X73.749 Y68.645 E402.06111
G1 X72.044 Y70.044 E402.12679
G1 X70.645 Y71.749 E402.19248
G1 X69.606 Y73.695 E402.25818
G1 X68.966 Y75.806 E402.32388
G1 X68.749 Y78.000 E402.38955
G1 X68.966 Y80.195 E402.45524
G1 X69.606 Y82.305 E402.52091
G1 X70.645 Y84.251 E402.58661
G1 X72.044 Y85.956 E402.65230
G1 X73.749 Y87.355 E402.71799
G1 X75.695 Y88.394 E402.78369
G1 X77.806 Y89.034 E402.84939
G1 X80.000 Y89.251 E402.91505
G1 X82.194 Y89.034 E402.98071
G1 X84.305 Y88.394 E403.04641
G1 X86.251 Y87.355 E403.11211
G1 X87.956 Y85.956 E403.17780
G1 X89.355 Y84.251 E403.24349
G1 X90.394 Y82.305 E403.30919
G1 X91.034 Y80.194 E403.37489
G1 X91.250 Y78.000 E403.44055
G1 X91.034 Y75.806 E403.50621
G1 X90.394 Y73.695 E403.57191
G1 X89.355 Y71.749 E403.63761
G1 X87.956 Y70.044 E403.70330
G0 F10500 X88.922 Y69.254
;LAYER:24
G0 X88.311 Y69.689 Z9.545
;TYPE:WALL-INNER
G1 F1080 X86.530 Y68.227 E403.77193
G1 X84.497 Y67.142 E403.84056
G1 X82.292 Y66.473 E403.90919
G1 X80.000 Y66.247 E403.97778
G1 X77.708 Y66.473 E404.04638
G1 X75.503 Y67.142 E404.11501
G1 X73.470 Y68.227 E404.18364
G1 X71.689 Y69.689 E404.25227
G1 X70.227 Y71.470 E404.32089
G1 X69.142 Y73.503 E404.38953
G1 X68.473 Y75.708 E404.45815
G1 X68.246 Y78.000 E404.52675
G1 X68.473 Y80.293 E404.59538
G1 X69.142 Y82.497 E404.66398
G1 X70.227 Y84.530 E404.73261
G1 X71.689 Y86.311 E404.80124
G1 X73.470 Y87.773 E404.86987
G1 X75.503 Y88.858 E404.93850
G1 X77.708 Y89.527 E405.00713
G1 X80.000 Y89.754 E405.07573
G1 X82.292 Y89.527 E405.14432
G1 X84.497 Y88.858 E405.21295
G1 X86.530 Y87.773 E405.28159
G1 X88.311 Y86.311 E405.35021
G1 X89.773 Y84.530 E405.41884
G1 X90.858 Y82.497 E405.48747
G1 X91.527 Y80.292 E405.55610
G1 X91.753 Y78.000 E405.62470
G1 X91.527 Y75.708 E405.69329
G1 X90.858 Y73.503 E405.76192
G1 X89.773 Y71.470 E405.83055
G1 X88.311 Y69.689 E405.89918
G0 F10500 X92.749 Y65.251
G1 F1080 X92.749 Y90.749 E406.65860
G1 X67.251 Y90.749 E407.41801
G1 X67.251 Y65.251 E408.17743
G1 X92.749 Y65.251 E408.93685
G0 F10500 X93.249 Y64.751
;TYPE:WALL-OUTER
G1 F960 X93.249 Y91.249 E409.72605
G1 X66.751 Y91.249 E410.51525
G1 X66.751 Y64.751 E411.30445
G1 X93.249 Y64.751 E412.09365
G0 F10500 X92.899 Y65.011
G0 X88.226 Y69.824
G0 X87.956 Y70.044
G1 F960 X86.251 Y68.645 E412.15933
G1 X84.305 Y67.606 E412.22504
G1 X82.194 Y66.966 E412.29073
G1 X80.000 Y66.750 E412.35640
G1 X77.806 Y66.966 E412.42206
G1 X75.695 Y67.606 E412.48775
G1 X73.749 Y68.645 E412.55346
G1 X72.044 Y70.044 E412.61914
G1 X70.645 Y71.749 E412.68483
G1 X69.606 Y73.695 E412.75053
G1 X68.966 Y75.806 E412.81623
G1 X68.749 Y78.000 E412.88190
G1 X68.966 Y80.195 E412.94759
G1 X69.606 Y82.305 E413.01326
G1 X70.645 Y84.251 E413.07896
G1 X72.044 Y85.956 E413.14465
G1 X73.749 Y87.355 E413.21034
G1 X75.695 Y88.394 E413.27604
G1 X77.806 Y89.034 E413.34174
G1 X80.000 Y89.251 E413.40740
G1 X82.194 Y89.034 E413.47306
G1 X84.305 Y88.394 E413.53876
G1 X86.251 Y87.355 E413.60446
G1 X87.956 Y85.956 E413.67015
G1 X89.355 Y84.251 E413.73584
G1 X90.394 Y82.305 E413.80154
G1 X91.034 Y80.194 E413.86724
G1 X91.250 Y78.000 E413.93290
G1 X91.034 Y75.806 E413.99856
G1 X90.394 Y73.695 E414.06426
G1 X89.355 Y71.749 E414.12996
G1 X87.956 Y70.044 E414.19565
G0 F10500 X88.922 Y69.254
;LAYER:25
G0 X88.311 Y69.689 Z9.925
;TYPE:WALL-INNER
G1 F1080 X86.530 Y68.227 E414.26428
G1 X84.497 Y67.142 E414.33291
G1 X82.292 Y66.473 E414.40154
G1 X80.000 Y66.247 E414.47013
G1 X77.708 Y66.473 E414.53873
G1 X75.503 Y67.142 E414.60736
G1 X73.470 Y68.227 E414.67599
G1 X71.689 Y69.689 E414.74462
G1 X70.227 Y71.470 E414.81324
G1 X69.142 Y73.503 E414.88188
G1 X68.473 Y75.708 E414.95050
G1 X68.246 Y78.000 E415.01910
G1 X68.473 Y80.293 E415.08773
G1 X69.142 Y82.497 E415.15633
G1 X70.227 Y84.530 E415.22496
G1 X71.689 Y86.311 E415.29359
G1 X73.470 Y87.773 E415.36222
G1 X75.503 Y88.858 E415.43085
G1 X77.708 Y89.527 E415.49948
G1 X80.000 Y89.754 E415.56808
G1 X82.292 Y89.527 E415.63667
G1 X84.497 Y88.858 E415.70530
G1 X86.530 Y87.773 E415.77394
G1 X88.311 Y86.311 E415.84256
G1 X89.773 Y84.530 E415.91119
G1 X90.858 Y82.497 E415.97982
G1 X91.527 Y80.292 E416.04845
G1 X91.753 Y78.000 E416.11705
G1 X91.527 Y75.708 E416.18564
G1 X90.858 Y73.503 E416.25427
G1 X89.773 Y71.470 E416.32290
G1 X88.311 Y69.689 E416.39153
G0 F10500 X92.749 Y65.251
G1 F1080 X92.749 Y90.749 E417.15095
G1 X67.251 Y90.749 E417.91036
G1 X67.251 Y65.251 E418.66978
G1 X92.749 Y65.251 E419.42920
G0 F10500 X93.249 Y64.751
;TYPE:WALL-OUTER
G1 F960 X93.249 Y91.249 E420.21840
G1 X66.751 Y91.249 E421.00760
G1 X66.751 Y64.751 E421.79680
G1 X93.249 Y64.751 E422.58600
G0 F10500 X92.899 Y65.011
G0 X88.226 Y69.824
G0 X87.956 Y70.044
G1 F960 X86.251 Y68.645 E422.65168
G1 X84.305 Y67.606 E422.71739
G1 X82.194 Y66.966 E422.78308
G1 X80.000 Y66.750 E422.84875
G1 X77.806 Y66.966 E422.91441
G1 X75.695 Y67.606 E422.98010
G1 X73.749 Y68.645 E423.04581
G1 X72.044 Y70.044 E423.11149
G1 X70.645 Y71.749 E423.17718
G1 X69.606 Y73.695 E423.24288
G1 X68.966 Y75.806 E423.30858
G1 X68.749 Y78.000 E423.37425
G1 X68.966 Y80.195 E423.43994
G1 X69.606 Y82.305 E423.50561
G1 X70.645 Y84.251 E423.57131
G1 X72.044 Y85.956 E423.63700
G1 X73.749 Y87.355 E423.70269
G1 X75.695 Y88.394 E423.76839
G1 X77.806 Y89.034 E423.83409
G1 X80.000 Y89.251 E423.89975
G1 X82.194 Y89.034 E423.96541
G1 X84.305 Y88.394 E424.03111
G1 X86.251 Y87.355 E424.09681
G1 X87.956 Y85.956 E424.16250
G1 X89.355 Y84.251 E424.22819
G1 X90.394 Y82.305 E424.29389
G1 X91.034 Y80.194 E424.35959
G1 X91.250 Y78.000 E424.42525
G1 X91.034 Y75.806 E424.49091
G1 X90.394 Y73.695 E424.55661
G1 X89.355 Y71.749 E424.62231
G1 X87.956 Y70.044 E424.68800
G0 F10500 X88.922 Y69.254
;LAYER:26
G0 X88.311 Y69.689 Z10.305
;TYPE:WALL-INNER
G1 F1080 X86.530 Y68.227 E424.75663
G1 X84.497 Y67.142 E424.82526
G1 X82.292 Y66.473 E424.89389
G1 X80.000 Y66.247 E424.96248
G1 X77.708 Y66.473 E425.03108
G1 X75.503 Y67.142 E425.09971
G1 X73.470 Y68.227 E425.16834
G1 X71.689 Y69.689 E425.23697
G1 X70.227 Y71.470 E425.30559
G1 X69.142 Y73.503 E425.37423
G1 X68.473 Y75.708 E425.44285
G1 X68.246 Y78.000 E425.51145
G1 X68.473 Y80.293 E425.58008
G1 X69.142 Y82.497 E425.64868
G1 X70.227 Y84.530 E425.71731
G1 X71.689 Y86.311 E425.78594
G1 X73.470 Y87.773 E425.85457
G1 X75.503 Y88.858 E425.92320
G1 X77.708 Y89.527 E425.99183
G1 X80.000 Y89.754 E426.06043
G1 X82.292 Y89.527 E426.12902
G1 X84.497 Y88.858 E426.19765
G1 X86.530 Y87.773 E426.26629
G1 X88.311 Y86.311 E426.33491
G1 X89.773 Y84.530 E426.40354
G1 X90.858 Y82.497 E426.47217
G1 X91.527 Y80.292 E426.54080
G1 X91.753 Y78.000 E426.60940
G1 X91.527 Y75.708 E426.67799
G1 X90.858 Y73.503 E426.74662
G1 X89.773 Y71.470 E426.81525
G1 X88.311 Y69.689 E426.88388
G0 F10500 X92.749 Y65.251
G1 F1080 X92.749 Y90.749 E427.64330
G1 X67.251 Y90.749 E428.40271
G1 X67.251 Y65.251 E429.16213
G1 X92.749 Y65.251 E429.92155
G0 F10500 X93.249 Y64.751
;TYPE:WALL-OUTER
G1 F960 X93.249 Y91.249 E430.71075
G1 X66.751 Y91.249 E431.49995
G1 X66.751 Y64.751 E432.28915
G1 X93.249 Y64.751 E433.07835
G0 F10500 X92.899 Y65.011
G0 X88.226 Y69.824
G0 X87.956 Y70.044
G1 F960 X86.251 Y68.645 E433.14403
G1 X84.305 Y67.606 E433.20974
G1 X82.194 Y66.966 E433.27543
G1 X80.000 Y66.750 E433.34109
G1 X77.806 Y66.966 E433.40676
G1 X75.695 Y67.606 E433.47245
G1 X73.749 Y68.645 E433.53816
G1 X72.044 Y70.044 E433.60384
G1 X70.645 Y71.749 E433.66953
G1 X69.606 Y73.695 E433.73523
G1 X68.966 Y75.806 E433.80093
G1 X68.749 Y78.000 E433.86660
G1 X68.966 Y80.195 E433.93229
G1 X69.606 Y82.305 E433.99796
G1 X70.645 Y84.251 E434.06366
G1 X72.044 Y85.956 E434.12935
G1 X73.749 Y87.355 E434.19504
G1 X75.695 Y88.394 E434.26074
G1 X77.806 Y89.034 E434.32644
G1 X80.000 Y89.251 E434.39210
G1 X82.194 Y89.034 E434.45776
G1 X84.305 Y88.394 E434.52346
G1 X86.251 Y87.355 E434.58916
G1 X87.956 Y85.956 E434.65485
G1 X89.355 Y84.251 E434.72054
G1 X90.394 Y82.305 E434.78624
G1 X91.034 Y80.194 E434.85194
G1 X91.250 Y78.000 E434.91760
G1 X91.034 Y75.806 E434.98326
G1 X90.394 Y73.695 E435.04896
G1 X89.355 Y71.749 E435.11466
G1 X87.956 Y70.044 E435.18035
G0 F10500 X88.922 Y69.254
;LAYER:27
G0 X88.311 Y69.689 Z10.685
;TYPE:WALL-INNER
G1 F1080 X86.530 Y68.227 E435.24898
G1 X84.497 Y67.142 E435.31761
G1 X82.292 Y66.473 E435.38624
G1 X80.000 Y66.247 E435.45483
G1 X77.708 Y66.473 E435.52343
G1 X75.503 Y67.142 E435.59206
G1 X73.470 Y68.227 E435.66069
G1 X71.689 Y69.689 E435.72932
G1 X70.227 Y71.470 E435.79794
G1 X69.142 Y73.503 E435.86658
G1 X68.473 Y75.708 E435.93520
G1 X68.246 Y78.000 E436.00380
G1 X68.473 Y80.293 E436.07243
G1 X69.142 Y82.497 E436.14103
G1 X70.227 Y84.530 E436.20966
G1 X71.689 Y86.311 E436.27829
G1 X73.470 Y87.773 E436.34692
G1 X75.503 Y88.858 E436.41555
G1 X77.708 Y89.527 E436.48418
G1 X80.000 Y89.754 E436.55278
G1 X82.292 Y89.527 E436.62137
G1 X84.497 Y88.858 E436.69000
G1 X86.530 Y87.773 E436.75864
G1 X88.311 Y86.311 E436.82726
G1 X89.773 Y84.530 E436.89589
G1 X90.858 Y82.497 E436.96452
G1 X91.527 Y80.292 E437.03315
G1 X91.753 Y78.000 E437.10175
G1 X91.527 Y75.708 E437.17034
G1 X90.858 Y73.503 E437.23897
G1 X89.773 Y71.470 E437.30760
G1 X88.311 Y69.689 E437.37623
G0 F10500 X92.749 Y65.251
G1 F1080 X92.749 Y90.749 E438.13565
G1 X67.251 Y90.749 E438.89506
G1 X67.251 Y65.251 E439.65448
G1 X92.749 Y65.251 E440.41390
G0 F10500 X93.249 Y64.751
;TYPE:WALL-OUTER
G1 F960 X93.249 Y91.249 E441.20310
G1 X66.751 Y91.249 E441.99230
G1 X66.751 Y64.751 E442.78150
G1 X93.249 Y64.751 E443.57070
G0 F10500 X92.899 Y65.011
G0 X88.226 Y69.824
G0 X87.956 Y70.044
G1 F960 X86.251 Y68.645 E443.63638
G1 X84.305 Y67.606 E443.70209
G1 X82.194 Y66.966 E443.76778
G1 X80.000 Y66.750 E443.83344
G1 X77.806 Y66.966 E443.89911
G1 X75.695 Y67.606 E443.96480
G1 X73.749 Y68.645 E444.03051
G1 X72.044 Y70.044 E444.09619
G1 X70.645 Y71.749 E444.16188
G1 X69.606 Y73.695 E444.22758
G1 X68.966 Y75.806 E444.29328
G1 X68.749 Y78.000 E444.35895
G1 X68.966 Y80.195 E444.42464
G1 X69.606 Y82.305 E444.49031
G1 X70.645 Y84.251 E444.55601
G1 X72.044 Y85.956 E444.62170
G1 X73.749 Y87.355 E444.68739
G1 X75.695 Y88.394 E444.75309
G1 X77.806 Y89.034 E444.81879
G1 X80.000 Y89.251 E444.88445
G1 X82.194 Y89.034 E444.95011
G1 X84.305 Y88.394 E445.01581
G1 X86.251 Y87.355 E445.08151
G1 X87.956 Y85.956 E445.14720
G1 X89.355 Y84.251 E445.21289
G1 X90.394 Y82.305 E445.27859
G1 X91.034 Y80.194 E445.34429
G1 X91.250 Y78.000 E445.40995
G1 X91.034 Y75.806 E445.47561
G1 X90.394 Y73.695 E445.54131
G1 X89.355 Y71.749 E445.60701
G1 X87.956 Y70.044 E445.67270
G0 F10500 X88.922 Y69.254
;LAYER:28
G0 X88.311 Y69.689 Z11.065
;TYPE:WALL-INNER
G1 F1080 X86.530 Y68.227 E445.74133
G1 X84.497 Y67.142 E445.80996
G1 X82.292 Y66.473 E445.87859
G1 X80.000 Y66.247 E445.94718
G1 X77.708 Y66.473 E446.01578
G1 X75.503 Y67.142 E446.08441
G1 X73.470 Y68.227 E446.15304
G1 X71.689 Y69.689 E446.22167
G1 X70.227 Y71.470 E446.29029
G1 X69.142 Y73.503 E446.35893
G1 X68.473 Y75.708 E446.42755
G1 X68.246 Y78.000 E446.49615
G1 X68.473 Y80.293 E446.56478
G1 X69.142 Y82.497 E446.63338
G1 X70.227 Y84.530 E446.70201
G1 X71.689 Y86.311 E446.77064
G1 X73.470 Y87.773 E446.83927
G1 X75.503 Y88.858 E446.90790
G1 X77.708 Y89.527 E446.97653
G1 X80.000 Y89.754 E447.04513
G1 X82.292 Y89.527 E447.11372
G1 X84.497 Y88.858 E447.18235
G1 X86.530 Y87.773 E447.25099
G1 X88.311 Y86.311 E447.31961
G1 X89.773 Y84.530 E447.38824
G1 X90.858 Y82.497 E447.45687
G1 X91.527 Y80.292 E447.52550
G1 X91.753 Y78.000 E447.59410
G1 X91.527 Y75.708 E447.66269
G1 X90.858 Y73.503 E447.73132
G1 X89.773 Y71.470 E447.79995
G1 X88.311 Y69.689 E447.86858
G0 F10500 X92.749 Y65.251
G1 F1080 X92.749 Y90.749 E448.62800
G1 X67.251 Y90.749 E449.38741
G1 X67.251 Y65.251 E450.14683
G1 X92.749 Y65.251 E450.90625
G0 F10500 X93.249 Y64.751
;TYPE:WALL-OUTER
G1 F960 X93.249 Y91.249 E451.69545
G1 X66.751 Y91.249 E452.48465
G1 X66.751 Y64.751 E453.27385
G1 X93.249 Y64.751 E454.06305
G0 F10500 X92.899 Y65.011
G0 X88.226 Y69.824
G0 X87.956 Y70.044
G1 F960 X86.251 Y68.645 E454.12873
G1 X84.305 Y67.606 E454.19444
G1 X82.194 Y66.966 E454.26013
G1 X80.000 Y66.750 E454.32579
G1 X77.806 Y66.966 E454.39146
G1 X75.695 Y67.606 E454.45715
G1 X73.749 Y68.645 E454.52286
G1 X72.044 Y70.044 E454.58854
G1 X70.645 Y71.749 E454.65423
G1 X69.606 Y73.695 E454.71993
G1 X68.966 Y75.806 E454.78563
G1 X68.749 Y78.000 E454.85130
G1 X68.966 Y80.195 E454.91699
G1 X69.606 Y82.305 E454.98266
G1 X70.645 Y84.251 E455.04836
G1 X72.044 Y85.956 E455.11405
G1 X73.749 Y87.355 E455.17974
G1 X75.695 Y88.394 E455.24544
G1 X77.806 Y89.034 E455.31114
G1 X80.000 Y89.251 E455.37680
G1 X82.194 Y89.034 E455.44246
G1 X84.305 Y88.394 E455.50816
G1 X86.251 Y87.355 E455.57386
G1 X87.956 Y85.956 E455.63955
G1 X89.355 Y84.251 E455.70524
G1 X90.394 Y82.305 E455.77094
G1 X91.034 Y80.194 E455.83664
G1 X91.250 Y78.000 E455.90230
G1 X91.034 Y75.806 E455.96796
G1 X90.394 Y73.695 E456.03366
G1 X89.355 Y71.749 E456.09936
G1 X87.956 Y70.044 E456.16505
G0 F10500 X88.922 Y69.254
;LAYER:29
G0 X88.311 Y69.689 Z11.445
;TYPE:WALL-INNER
G1 F1080 X86.530 Y68.227 E456.23368
G1 X84.497 Y67.142 E456.30231
G1 X82.292 Y66.473 E456.37094
G1 X80.000 Y66.247 E456.43953
G1 X77.708 Y66.473 E456.50813
G1 X75.503 Y67.142 E456.57675
G1 X73.470 Y68.227 E456.64539
G1 X71.689 Y69.689 E456.71402
G1 X70.227 Y71.470 E456.78264
G1 X69.142 Y73.503 E456.85128
G1 X68.473 Y75.708 E456.91990
G1 X68.246 Y78.000 E456.98850
G1 X68.473 Y80.293 E457.05713
G1 X69.142 Y82.497 E457.12573
G1 X70.227 Y84.530 E457.19436
G1 X71.689 Y86.311 E457.26299
G1 X73.470 Y87.773 E457.33162
G1 X75.503 Y88.858 E457.40025
G1 X77.708 Y89.527 E457.46888
G1 X80.000 Y89.754 E457.53748
G1 X82.292 Y89.527 E457.60607
G1 X84.497 Y88.858 E457.67470
G1 X86.530 Y87.773 E457.74334
G1 X88.311 Y86.311 E457.81196
G1 X89.773 Y84.530 E457.88059
G1 X90.858 Y82.497 E457.94922
G1 X91.527 Y80.292 E458.01785
G1 X91.753 Y78.000 E458.08645
G1 X91.527 Y75.708 E458.15504
G1 X90.858 Y73.503 E458.22367
G1 X89.773 Y71.470 E458.29230
G1 X88.311 Y69.689 E458.36093
G0 F10500 X92.749 Y65.251
G1 F1080 X92.749 Y90.749 E459.12035
G1 X67.251 Y90.749 E459.87976
G1 X67.251 Y65.251 E460.63918
G1 X92.749 Y65.251 E461.39860
G0 F10500 X93.249 Y64.751
;TYPE:WALL-OUTER
G1 F960 X93.249 Y91.249 E462.18780
G1 X66.751 Y91.249 E462.97700
G1 X66.751 Y64.751 E463.76620
G1 X93.249 Y64.751 E464.55540
G0 F10500 X92.899 Y65.011
G0 X88.226 Y69.824
G0 X87.956 Y70.044
G1 F960 X86.251 Y68.645 E464.62108
G1 X84.305 Y67.606 E464.68679
G1 X82.194 Y66.966 E464.75248
G1 X80.000 Y66.750 E464.81814
G1 X77.806 Y66.966 E464.88381
G1 X75.695 Y67.606 E464.94950
G1 X73.749 Y68.645 E465.01521
G1 X72.044 Y70.044 E465.08089
G1 X70.645 Y71.749 E465.14658
G1 X69.606 Y73.695 E465.21228
G1 X68.966 Y75.806 E465.27798
G1 X68.749 Y78.000 E465.34365
G1 X68.966 Y80.195 E465.40934
G1 X69.606 Y82.305 E465.47501
G1 X70.645 Y84.251 E465.54071
G1 X72.044 Y85.956 E465.60640
G1 X73.749 Y87.355 E465.67209
G1 X75.695 Y88.394 E465.73779
G1 X77.806 Y89.034 E465.80349
G1 X80.000 Y89.251 E465.86915
G1 X82.194 Y89.034 E465.93481
G1 X84.305 Y88.394 E466.00051
G1 X86.251 Y87.355 E466.06621
G1 X87.956 Y85.956 E466.13190
G1 X89.355 Y84.251 E466.19759
G1 X90.394 Y82.305 E466.26329
G1 X91.034 Y80.194 E466.32899
G1 X91.250 Y78.000 E466.39465
G1 X91.034 Y75.806 E466.46031
G1 X90.394 Y73.695 E466.52601
G1 X89.355 Y71.749 E466.59171
G1 X87.956 Y70.044 E466.65740
G0 F10500 X88.922 Y69.254
;LAYER:30
G0 X88.311 Y69.689 Z11.825
;TYPE:WALL-INNER
G1 F1080 X86.530 Y68.227 E466.72603
G1 X84.497 Y67.142 E466.79466
G1 X82.292 Y66.473 E466.86329
G1 X80.000 Y66.247 E466.93188
G1 X77.708 Y66.473 E467.00048
G1 X75.503 Y67.142 E467.06910
G1 X73.470 Y68.227 E467.13774
G1 X71.689 Y69.689 E467.20637
G1 X70.227 Y71.470 E467.27499
G1 X69.142 Y73.503 E467.34363
G1 X68.473 Y75.708 E467.41225
G1 X68.246 Y78.000 E467.48085
G1 X68.473 Y80.293 E467.54948
G1 X69.142 Y82.497 E467.61808
G1 X70.227 Y84.530 E467.68671
G1 X71.689 Y86.311 E467.75534
G1 X73.470 Y87.773 E467.82397
G1 X75.503 Y88.858 E467.89260
G1 X77.708 Y89.527 E467.96123
G1 X80.000 Y89.754 E468.02983
G1 X82.292 Y89.527 E468.09842
G1 X84.497 Y88.858 E468.16705
G1 X86.530 Y87.773 E468.23568
G1 X88.311 Y86.311 E468.30431
G1 X89.773 Y84.530 E468.37294
G1 X90.858 Y82.497 E468.44157
G1 X91.527 Y80.292 E468.51020
G1 X91.753 Y78.000 E468.57880
G1 X91.527 Y75.708 E468.64739
G1 X90.858 Y73.503 E468.71602
G1 X89.773 Y71.470 E468.78465
G1 X88.311 Y69.689 E468.85328
G0 F10500 X92.749 Y65.251
G1 F1080 X92.749 Y90.749 E469.61270
G1 X67.251 Y90.749 E470.37211
G1 X67.251 Y65.251 E471.13153
G1 X92.749 Y65.251 E471.89095
G0 F10500 X93.249 Y64.751
;TYPE:WALL-OUTER
G1 F960 X93.249 Y91.249 E472.68015
G1 X66.751 Y91.249 E473.46935
G1 X66.751 Y64.751 E474.25855
G1 X93.249 Y64.751 E475.04775
G0 F10500 X92.899 Y65.011
G0 X88.226 Y69.824
G0 X87.956 Y70.044
G1 F960 X86.251 Y68.645 E475.11343
G1 X84.305 Y67.606 E475.17914
G1 X82.194 Y66.966 E475.24483
G1 X80.000 Y66.750 E475.31049
G1 X77.806 Y66.966 E475.37616
G1 X75.695 Y67.606 E475.44185
G1 X73.749 Y68.645 E475.50756
G1 X72.044 Y70.044 E475.57324
G1 X70.645 Y71.749 E475.63893
G1 X69.606 Y73.695 E475.70463
G1 X68.966 Y75.806 E475.77033
G1 X68.749 Y78.000 E475.83600
G1 X68.966 Y80.195 E475.90169
G1 X69.606 Y82.305 E475.96736
G1 X70.645 Y84.251 E476.03306
G1 X72.044 Y85.956 E476.09875
G1 X73.749 Y87.355 E476.16443
G1 X75.695 Y88.394 E476.23014
G1 X77.806 Y89.034 E476.29584
G1 X80.000 Y89.251 E476.36150
G1 X82.194 Y89.034 E476.42716
G1 X84.305 Y88.394 E476.49286
G1 X86.251 Y87.355 E476.55856
G1 X87.956 Y85.956 E476.62425
G1 X89.355 Y84.251 E476.68994
G1 X90.394 Y82.305 E476.75564
G1 X91.034 Y80.194 E476.82134
G1 X91.250 Y78.000 E476.88700
G1 X91.034 Y75.806 E476.95266
G1 X90.394 Y73.695 E477.01836
G1 X89.355 Y71.749 E477.08406
G1 X87.956 Y70.044 E477.14975
G0 F10500 X88.922 Y69.254
;LAYER:31
G0 X88.311 Y69.689 Z12.205
;TYPE:WALL-INNER
G1 F1080 X86.530 Y68.227 E477.21838
G1 X84.497 Y67.142 E477.28701
G1 X82.292 Y66.473 E477.35564
G1 X80.000 Y66.247 E477.42423
G1 X77.708 Y66.473 E477.49283
G1 X75.503 Y67.142 E477.56145
G1 X73.470 Y68.227 E477.63009
G1 X71.689 Y69.689 E477.69872
G1 X70.227 Y71.470 E477.76734
G1 X69.142 Y73.503 E477.83598
G1 X68.473 Y75.708 E477.90460
G1 X68.246 Y78.000 E477.97320
G1 X68.473 Y80.293 E478.04183
G1 X69.142 Y82.497 E478.11043
G1 X70.227 Y84.530 E478.17906
G1 X71.689 Y86.311 E478.24769
G1 X73.470 Y87.773 E478.31632
G1 X75.503 Y88.858 E478.38495
G1 X77.708 Y89.527 E478.45358
G1 X80.000 Y89.754 E478.52218
G1 X82.292 Y89.527 E478.59077
G1 X84.497 Y88.858 E478.65940
G1 X86.530 Y87.773 E478.72803
G1 X88.311 Y86.311 E478.79666
G1 X89.773 Y84.530 E478.86529
G1 X90.858 Y82.497 E478.93392
G1 X91.527 Y80.292 E479.00255
G1 X91.753 Y78.000 E479.07115
G1 X91.527 Y75.708 E479.13974
G1 X90.858 Y73.503 E479.20837
G1 X89.773 Y71.470 E479.27700
G1 X88.311 Y69.689 E479.34563
G0 F10500 X92.749 Y65.251
G1 F1080 X92.749 Y90.749 E480.10505
G1 X67.251 Y90.749 E480.86446
G1 X67.251 Y65.251 E481.62388
G1 X92.749 Y65.251 E482.38330
G0 F10500 X93.249 Y64.751
;TYPE:WALL-OUTER
G1 F960 X93.249 Y91.249 E483.17250
G1 X66.751 Y91.249 E483.96170
G1 X66.751 Y64.751 E484.75090
G1 X93.249 Y64.751 E485.54010
G0 F10500 X92.899 Y65.011
G0 X88.226 Y69.824
G0 X87.956 Y70.044
G1 F960 X86.251 Y68.645 E485.60578
G1 X84.305 Y67.606 E485.67149
G1 X82.194 Y66.966 E485.73718
G1 X80.000 Y66.750 E485.80284
G1 X77.806 Y66.966 E485.86851
G1 X75.695 Y67.606 E485.93420
G1 X73.749 Y68.645 E485.99991
G1 X72.044 Y70.044 E486.06559
G1 X70.645 Y71.749 E486.13128
G1 X69.606 Y73.695 E486.19698
G1 X68.966 Y75.806 E486.26268
G1 X68.749 Y78.000 E486.32834
G1 X68.966 Y80.195 E486.39404
G1 X69.606 Y82.305 E486.45971
G1 X70.645 Y84.251 E486.52541
G1 X72.044 Y85.956 E486.59110
G1 X73.749 Y87.355 E486.65678
G1 X75.695 Y88.394 E486.72249
G1 X77.806 Y89.034 E486.78819
G1 X80.000 Y89.251 E486.85385
G1 X82.194 Y89.034 E486.91951
G1 X84.305 Y88.394 E486.98521
G1 X86.251 Y87.355 E487.05091
G1 X87.956 Y85.956 E487.11660
G1 X89.355 Y84.251 E487.18229
G1 X90.394 Y82.305 E487.24799
G1 X91.034 Y80.194 E487.31369
G1 X91.250 Y78.000 E487.37935
G1 X91.034 Y75.806 E487.44501
G1 X90.394 Y73.695 E487.51071
G1 X89.355 Y71.749 E487.57641
G1 X87.956 Y70.044 E487.64210
G0 F10500 X88.922 Y69.254
;LAYER:32
G0 X88.311 Y69.689 Z12.585
;TYPE:WALL-INNER
G1 F1080 X86.530 Y68.227 E487.71073
G1 X84.497 Y67.142 E487.77936
G1 X82.292 Y66.473 E487.84799
G1 X80.000 Y66.247 E487.91658
G1 X77.708 Y66.473 E487.98518
G1 X75.503 Y67.142 E488.05380
G1 X73.470 Y68.227 E488.12244
G1 X71.689 Y69.689 E488.19107
G1 X70.227 Y71.470 E488.25969
G1 X69.142 Y73.503 E488.32833
G1 X68.473 Y75.708 E488.39695
G1 X68.246 Y78.000 E488.46555
G1 X68.473 Y80.293 E488.53418
G1 X69.142 Y82.497 E488.60278
G1 X70.227 Y84.530 E488.67141
G1 X71.689 Y86.311 E488.74004
G1 X73.470 Y87.773 E488.80867
G1 X75.503 Y88.858 E488.87730
G1 X77.708 Y89.527 E488.94593
G1 X80.000 Y89.754 E489.01453
G1 X82.292 Y89.527 E489.08312
G1 X84.497 Y88.858 E489.15175
G1 X86.530 Y87.773 E489.22038
G1 X88.311 Y86.311 E489.28901
G1 X89.773 Y84.530 E489.35764
G1 X90.858 Y82.497 E489.42627
G1 X91.527 Y80.292 E489.49490
G1 X91.753 Y78.000 E489.56350
G1 X91.527 Y75.708 E489.63209
G1 X90.858 Y73.503 E489.70072
G1 X89.773 Y71.470 E489.76935
G1 X88.311 Y69.689 E489.83798
G0 F10500 X92.749 Y65.251
G1 F1080 X92.749 Y90.749 E490.59740
G1 X67.251 Y90.749 E491.35681
G1 X67.251 Y65.251 E492.11623
G1 X92.749 Y65.251 E492.87565
G0 F10500 X93.249 Y64.751
;TYPE:WALL-OUTER
G1 F960 X93.249 Y91.249 E493.66485
G1 X66.751 Y91.249 E494.45405
G1 X66.751 Y64.751 E495.24325
G1 X93.249 Y64.751 E496.03245
G0 F10500 X92.899 Y65.011
G0 X88.226 Y69.824
G0 X87.956 Y70.044
G1 F960 X86.251 Y68.645 E496.09813
G1 X84.305 Y67.606 E496.16384
G1 X82.194 Y66.966 E496.22953
G1 X80.000 Y66.750 E496.29519
G1 X77.806 Y66.966 E496.36086
G1 X75.695 Y67.606 E496.42655
G1 X73.749 Y68.645 E496.49226
G1 X72.044 Y70.044 E496.55794
G1 X70.645 Y71.749 E496.62363
G1 X69.606 Y73.695 E496.68933
G1 X68.966 Y75.806 E496.75503
G1 X68.749 Y78.000 E496.82069
G1 X68.966 Y80.195 E496.88639
G1 X69.606 Y82.305 E496.95206
G1 X70.645 Y84.251 E497.01776
G1 X72.044 Y85.956 E497.08345
G1 X73.749 Y87.355 E497.14913
G1 X75.695 Y88.394 E497.21484
G1 X77.806 Y89.034 E497.28054
G1 X80.000 Y89.251 E497.34620
G1 X82.194 Y89.034 E497.41186
G1 X84.305 Y88.394 E497.47756
G1 X86.251 Y87.355 E497.54326
G1 X87.956 Y85.956 E497.60895
G1 X89.355 Y84.251 E497.67464
G1 X90.394 Y82.305 E497.74034
G1 X91.034 Y80.194 E497.80604
G1 X91.250 Y78.000 E497.87170
G1 X91.034 Y75.806 E497.93736
G1 X90.394 Y73.695 E498.00306
G1 X89.355 Y71.749 E498.06876
G1 X87.956 Y70.044 E498.13445
G0 F10500 X88.922 Y69.254
;LAYER:33
G0 X88.311 Y69.689 Z12.965
;TYPE:WALL-INNER
G1 F1080 X86.530 Y68.227 E498.20308
G1 X84.497 Y67.142 E498.27171
G1 X82.292 Y66.473 E498.34034
G1 X80.000 Y66.247 E498.40893
G1 X77.708 Y66.473 E498.47753
G1 X75.503 Y67.142 E498.54615
G1 X73.470 Y68.227 E498.61479
G1 X71.689 Y69.689 E498.68342
G1 X70.227 Y71.470 E498.75204
G1 X69.142 Y73.503 E498.82068
G1 X68.473 Y75.708 E498.88930
G1 X68.246 Y78.000 E498.95790
G1 X68.473 Y80.293 E499.02653
G1 X69.142 Y82.497 E499.09513
G1 X70.227 Y84.530 E499.16376
G1 X71.689 Y86.311 E499.23239
G1 X73.470 Y87.773 E499.30102
G1 X75.503 Y88.858 E499.36965
G1 X77.708 Y89.527 E499.43828
G1 X80.000 Y89.754 E499.50688
G1 X82.292 Y89.527 E499.57547
G1 X84.497 Y88.858 E499.64410
G1 X86.530 Y87.773 E499.71273
G1 X88.311 Y86.311 E499.78136
G1 X89.773 Y84.530 E499.84999
G1 X90.858 Y82.497 E499.91862
G1 X91.527 Y80.292 E499.98725
G1 X91.753 Y78.000 E500.05585
G1 X91.527 Y75.708 E500.12444
G1 X90.858 Y73.503 E500.19307
G1 X89.773 Y71.470 E500.26170
G1 X88.311 Y69.689 E500.33033
G0 F10500 X92.749 Y65.251
G1 F1080 X92.749 Y90.749 E501.08975
G1 X67.251 Y90.749 E501.84916
G1 X67.251 Y65.251 E502.60858
G1 X92.749 Y65.251 E503.36800
G0 F10500 X93.249 Y64.751
;TYPE:WALL-OUTER
G1 F960 X93.249 Y91.249 E504.15720
G1 X66.751 Y91.249 E504.94640
G1 X66.751 Y64.751 E505.73560
G1 X93.249 Y64.751 E506.52480
G0 F10500 X92.899 Y65.011
G0 X88.226 Y69.824
G0 X87.956 Y70.044
G1 F960 X86.251 Y68.645 E506.59048
G1 X84.305 Y67.606 E506.65619
G1 X82.194 Y66.966 E506.72188
G1 X80.000 Y66.750 E506.78754
G1 X77.806 Y66.966 E506.85321
G1 X75.695 Y67.606 E506.91890
G1 X73.749 Y68.645 E506.98461
G1 X72.044 Y70.044 E507.05029
G1 X70.645 Y71.749 E507.11598
G1 X69.606 Y73.695 E507.18168
G1 X68.966 Y75.806 E507.24738
G1 X68.749 Y78.000 E507.31304
G1 X68.966 Y80.195 E507.37874
G1 X69.606 Y82.305 E507.44441
G1 X70.645 Y84.251 E507.51011
G1 X72.044 Y85.956 E507.57580
G1 X73.749 Y87.355 E507.64148
G1 X75.695 Y88.394 E507.70719
G1 X77.806 Y89.034 E507.77289
G1 X80.000 Y89.251 E507.83855
G1 X82.194 Y89.034 E507.90421
G1 X84.305 Y88.394 E507.96991
G1 X86.251 Y87.355 E508.03561
G1 X87.956 Y85.956 E508.10130
G1 X89.355 Y84.251 E508.16699
G1 X90.394 Y82.305 E508.23269
G1 X91.034 Y80.194 E508.29839
G1 X91.250 Y78.000 E508.36405
G1 X91.034 Y75.806 E508.42971
G1 X90.394 Y73.695 E508.49541
G1 X89.355 Y71.749 E508.56111
G1 X87.956 Y70.044 E508.62680
G0 F10500 X88.922 Y69.254
;LAYER:34
G0 X88.311 Y69.689 Z13.345
;TYPE:WALL-INNER
G1 F1080 X86.529 Y68.227 E508.69545
G1 X86.021 Y67.956 E508.71260
G1 X84.497 Y67.142 E508.76406
G1 X83.947 Y66.975 E508.78117
G1 X82.292 Y66.473 E508.83268
G1 X80.000 Y66.247 E508.90128
G1 X77.709 Y66.473 E508.96984
G1 X77.158 Y66.639 E508.98698
G1 X75.503 Y67.142 E509.03850
G1 X74.995 Y67.412 E509.05563
G1 X73.471 Y68.227 E509.10711
G1 X71.689 Y69.689 E509.17576
G1 X70.227 Y71.471 E509.24441
G1 X69.957 Y71.978 E509.26152
G1 X69.142 Y73.503 E509.31301
G1 X68.975 Y74.053 E509.33013
G1 X68.473 Y75.708 E509.38164
G1 X68.246 Y78.000 E509.45024
G1 X68.473 Y80.292 E509.51884
G1 X68.639 Y80.843 E509.53598
G1 X69.142 Y82.497 E509.58747
G1 X69.412 Y83.005 E509.60460
G1 X70.227 Y84.529 E509.65607
G1 X71.689 Y86.311 E509.72472
G1 X73.471 Y87.773 E509.79337
G1 X73.979 Y88.044 E509.81052
G1 X75.503 Y88.858 E509.86198
G1 X76.053 Y89.025 E509.87910
G1 X77.708 Y89.527 E509.93061
G1 X80.000 Y89.754 E509.99921
G1 X82.291 Y89.527 E510.06778
G1 X82.842 Y89.361 E510.08491
G1 X84.497 Y88.858 E510.13643
G1 X85.005 Y88.588 E510.15357
G1 X86.529 Y87.773 E510.20504
G1 X88.311 Y86.311 E510.27369
G1 X89.773 Y84.529 E510.34234
G1 X90.043 Y84.022 E510.35945
G1 X90.858 Y82.497 E510.41095
G1 X91.025 Y81.947 E510.42807
G1 X91.527 Y80.292 E510.47958
G1 X91.753 Y78.000 E510.54817
G1 X91.527 Y75.709 E510.61673
G1 X91.361 Y75.158 E510.63387
G1 X90.858 Y73.503 E510.68539
G1 X90.588 Y72.995 E510.70253
G1 X89.773 Y71.471 E510.75400
G1 X88.311 Y69.689 E510.82265
G0 F10500 X92.749 Y65.251
G1 F1080 X92.749 Y90.749 E511.58207
G1 X67.251 Y90.749 E512.34148
G1 X67.251 Y65.251 E513.10090
G1 X92.749 Y65.251 E513.86032
G0 F10500 X93.249 Y64.751
;TYPE:WALL-OUTER
G1 F960 X93.249 Y91.249 E514.64952
G1 X66.751 Y91.249 E515.43872
G1 X66.751 Y64.751 E516.22792
G1 X93.249 Y64.751 E517.01712
G0 F10500 X92.899 Y65.011
G0 X88.226 Y69.824
G0 X87.956 Y70.044
G1 F960 X86.250 Y68.645 E517.08283
G1 X84.305 Y67.606 E517.14850
G1 X82.194 Y66.966 E517.21420
G1 X80.000 Y66.750 E517.27986
G1 X77.806 Y66.966 E517.34552
G1 X75.695 Y67.606 E517.41122
G1 X73.750 Y68.645 E517.47690
G1 X72.044 Y70.044 E517.54261
G1 X70.645 Y71.750 E517.60832
G1 X69.606 Y73.695 E517.67399
G1 X68.966 Y75.806 E517.73969
G1 X68.749 Y78.000 E517.80535
G1 X68.966 Y80.195 E517.87105
G1 X69.606 Y82.305 E517.93672
G1 X70.645 Y84.250 E518.00239
G1 X72.044 Y85.956 E518.06810
G1 X73.750 Y87.355 E518.13381
G1 X75.695 Y88.394 E518.19949
G1 X77.806 Y89.034 E518.26519
G1 X80.000 Y89.251 E518.33085
G1 X82.194 Y89.034 E518.39652
G1 X84.305 Y88.394 E518.46221
G1 X86.250 Y87.355 E518.52789
G1 X87.956 Y85.956 E518.59360
G1 X89.355 Y84.250 E518.65931
G1 X90.394 Y82.305 E518.72499
G1 X91.034 Y80.194 E518.79069
G1 X91.250 Y78.000 E518.85635
G1 X91.034 Y75.806 E518.92201
G1 X90.394 Y73.695 E518.98771
G1 X89.355 Y71.750 E519.05338
G1 X87.956 Y70.044 E519.11909
G0 F10500 X88.922 Y69.254
;LAYER:35
G0 X88.311 Y69.689 Z13.725
;TYPE:WALL-INNER
G1 F1080 X86.529 Y68.227 E519.18774
G1 X84.497 Y67.141 E519.25636
G1 X83.924 Y66.968 E519.27419
G1 X82.292 Y66.473 E519.32498
G1 X80.000 Y66.247 E519.39358
G1 X77.709 Y66.473 E519.46214
G1 X77.135 Y66.646 E519.48000
G1 X75.503 Y67.142 E519.53080
G1 X73.471 Y68.227 E519.59941
G1 X71.689 Y69.689 E519.66806
G1 X70.227 Y71.471 E519.73671
G1 X69.141 Y73.503 E519.80533
G1 X68.968 Y74.076 E519.82315
G1 X68.473 Y75.708 E519.87395
G1 X68.415 Y76.304 E519.89178
G1 X68.246 Y77.999 E519.94252
G1 X68.305 Y78.596 E519.96038
G1 X68.473 Y80.293 E520.01117
G1 X68.646 Y80.866 E520.02900
G1 X69.142 Y82.497 E520.07977
G1 X70.227 Y84.529 E520.14838
G1 X71.689 Y86.311 E520.21703
G1 X73.471 Y87.773 E520.28568
G1 X75.503 Y88.859 E520.35430
G1 X76.076 Y89.032 E520.37213
G1 X77.708 Y89.527 E520.42292
G1 X78.304 Y89.585 E520.44076
G1 X79.999 Y89.754 E520.49149
G1 X80.596 Y89.695 E520.50936
G1 X82.292 Y89.527 E520.56012
G1 X82.865 Y89.354 E520.57794
G1 X84.497 Y88.858 E520.62874
G1 X86.529 Y87.773 E520.69735
G1 X88.311 Y86.311 E520.76600
G1 X89.773 Y84.529 E520.83465
G1 X90.859 Y82.497 E520.90327
G1 X91.032 Y81.924 E520.92110
G1 X91.527 Y80.292 E520.97189
G1 X91.753 Y78.000 E521.04049
G1 X91.527 Y75.709 E521.10905
G1 X91.354 Y75.135 E521.12691
G1 X90.858 Y73.503 E521.17771
G1 X89.773 Y71.471 E521.24632
G1 X88.311 Y69.689 E521.31497
G0 F10500 X92.749 Y65.251
G1 F1080 X92.749 Y90.749 E522.07438
G1 X67.251 Y90.749 E522.83380
G1 X67.251 Y65.251 E523.59322
G1 X92.749 Y65.251 E524.35263
G0 F10500 X93.249 Y64.751
;TYPE:WALL-OUTER
G1 F960 X93.249 Y91.249 E525.14183
G1 X66.751 Y91.249 E525.93103
G1 X66.751 Y64.751 E526.72023
G1 X93.249 Y64.751 E527.50943
G0 F10500 X92.899 Y65.011
G0 X88.226 Y69.824
G0 X87.956 Y70.044
G1 F960 X86.250 Y68.645 E527.57514
G1 X84.305 Y67.606 E527.64082
G1 X82.194 Y66.966 E527.70652
G1 X80.000 Y66.750 E527.77218
G1 X77.806 Y66.966 E527.83784
G1 X75.695 Y67.606 E527.90354
G1 X73.750 Y68.645 E527.96921
G1 X72.044 Y70.044 E528.03492
G1 X70.645 Y71.750 E528.10063
G1 X69.606 Y73.695 E528.16631
G1 X68.966 Y75.806 E528.23201
G1 X68.749 Y78.000 E528.29767
G1 X68.966 Y80.195 E528.36337
G1 X69.606 Y82.305 E528.42904
G1 X70.645 Y84.250 E528.49471
G1 X72.044 Y85.956 E528.56042
G1 X73.750 Y87.355 E528.62613
G1 X75.695 Y88.394 E528.69181
G1 X77.806 Y89.034 E528.75751
G1 X80.000 Y89.251 E528.82317
G1 X82.194 Y89.034 E528.88883
G1 X84.305 Y88.394 E528.95453
G1 X86.250 Y87.355 E529.02021
G1 X87.956 Y85.956 E529.08592
G1 X89.355 Y84.250 E529.15163
G1 X90.394 Y82.305 E529.21730
G1 X91.034 Y80.194 E529.28300
G1 X91.250 Y78.000 E529.34866
G1 X91.034 Y75.806 E529.41432
G1 X90.394 Y73.695 E529.48002
G1 X89.355 Y71.750 E529.54570
G1 X87.956 Y70.044 E529.61141
G0 F10500 X88.922 Y69.254
;LAYER:36
G0 X88.311 Y69.689 Z14.105
;TYPE:WALL-INNER
G1 F1080 X86.529 Y68.227 E529.68006
G1 X84.497 Y67.142 E529.74867
G1 X82.291 Y66.473 E529.81732
G1 X81.673 Y66.413 E529.83582
G1 X80.001 Y66.247 E529.88586
G1 X79.381 Y66.308 E529.90441
G1 X77.708 Y66.473 E529.95448
G1 X75.503 Y67.142 E530.02311
G1 X73.471 Y68.227 E530.09172
G1 X71.689 Y69.689 E530.16037
G1 X70.227 Y71.471 E530.22902
G1 X69.142 Y73.503 E530.29763
G1 X68.473 Y75.709 E530.36628
G1 X68.413 Y76.327 E530.38478
G1 X68.246 Y77.999 E530.43482
G1 X68.307 Y78.619 E530.45338
G1 X68.473 Y80.293 E530.50348
G1 X69.142 Y82.497 E530.57208
G1 X70.227 Y84.529 E530.64068
G1 X71.689 Y86.311 E530.70934
G1 X73.471 Y87.773 E530.77799
G1 X75.503 Y88.858 E530.84659
G1 X77.709 Y89.527 E530.91525
G1 X78.327 Y89.587 E530.93374
G1 X79.999 Y89.754 E530.98379
G1 X80.619 Y89.693 E531.00234
G1 X82.292 Y89.527 E531.05241
G1 X84.497 Y88.858 E531.12104
G1 X86.529 Y87.773 E531.18965
G1 X88.311 Y86.311 E531.25830
G1 X89.773 Y84.529 E531.32695
G1 X90.858 Y82.497 E531.39556
G1 X91.527 Y80.291 E531.46421
G1 X91.587 Y79.673 E531.48271
G1 X91.753 Y78.001 E531.53275
G1 X91.692 Y77.381 E531.55130
G1 X91.527 Y75.708 E531.60137
G1 X90.858 Y73.503 E531.67000
G1 X89.773 Y71.471 E531.73861
G1 X88.311 Y69.689 E531.80726
G0 F10500 X92.749 Y65.251
G1 F1080 X92.749 Y90.749 E532.56668
G1 X67.251 Y90.749 E533.32609
G1 X67.251 Y65.251 E534.08551
G1 X92.749 Y65.251 E534.84493
G0 F10500 X93.249 Y64.751
;TYPE:WALL-OUTER
G1 F960 X93.249 Y91.249 E535.63413
G1 X66.751 Y91.249 E536.42333
G1 X66.751 Y64.751 E537.21253
G1 X93.249 Y64.751 E538.00173
G0 F10500 X92.899 Y65.011
G0 X88.226 Y69.824
G0 X87.956 Y70.044
G1 F960 X86.250 Y68.645 E538.06744
G1 X84.305 Y67.606 E538.13311
G1 X82.194 Y66.966 E538.19881
G1 X80.000 Y66.750 E538.26447
G1 X77.806 Y66.966 E538.33013
G1 X75.695 Y67.606 E538.39583
G1 X73.750 Y68.645 E538.46151
G1 X72.044 Y70.044 E538.52722
G1 X70.645 Y71.750 E538.59293
G1 X69.606 Y73.695 E538.65860
G1 X68.966 Y75.806 E538.72430
G1 X68.749 Y78.000 E538.78997
G1 X68.966 Y80.195 E538.85566
G1 X69.606 Y82.305 E538.92133
G1 X70.645 Y84.250 E538.98701
G1 X72.044 Y85.956 E539.05272
G1 X73.750 Y87.355 E539.11843
G1 X75.695 Y88.394 E539.18410
G1 X77.806 Y89.034 E539.24980
G1 X80.000 Y89.251 E539.31546
G1 X82.194 Y89.034 E539.38113
G1 X84.305 Y88.394 E539.44683
G1 X86.250 Y87.355 E539.51250
G1 X87.956 Y85.956 E539.57821
G1 X89.355 Y84.250 E539.64392
G1 X90.394 Y82.305 E539.70960
G1 X91.034 Y80.194 E539.77530
G1 X91.250 Y78.000 E539.84096
G1 X91.034 Y75.806 E539.90662
G1 X90.394 Y73.695 E539.97232
G1 X89.355 Y71.750 E540.03799
G1 X87.956 Y70.044 E540.10370
G0 F10500 X88.922 Y69.254
;LAYER:37
G0 X88.311 Y69.689 Z14.485
;TYPE:WALL-INNER
G1 F1080 X86.529 Y68.227 E540.17235
G1 X85.959 Y67.923 E540.19159
G1 X84.497 Y67.142 E540.24096
G1 X82.292 Y66.473 E540.30959
G1 X80.000 Y66.247 E540.37818
G1 X77.708 Y66.473 E540.44678
G1 X75.503 Y67.142 E540.51541
G1 X74.933 Y67.445 E540.53463
G1 X73.470 Y68.227 E540.58404
G1 X71.689 Y69.689 E540.65267
G1 X70.227 Y71.471 E540.72132
G1 X69.924 Y72.040 E540.74052
G1 X69.142 Y73.503 E540.78992
G1 X68.473 Y75.708 E540.85855
G1 X68.246 Y78.000 E540.92715
G1 X68.473 Y80.293 E540.99578
G1 X69.142 Y82.497 E541.06438
G1 X69.445 Y83.067 E541.08360
G1 X70.227 Y84.530 E541.13301
G1 X71.689 Y86.311 E541.20164
G1 X73.471 Y87.773 E541.27029
G1 X74.041 Y88.077 E541.28953
G1 X75.503 Y88.858 E541.33889
G1 X77.708 Y89.527 E541.40752
G1 X80.000 Y89.754 E541.47612
G1 X82.292 Y89.527 E541.54472
G1 X84.497 Y88.858 E541.61335
G1 X85.067 Y88.555 E541.63257
G1 X86.530 Y87.773 E541.68198
G1 X88.311 Y86.311 E541.75061
G1 X89.773 Y84.529 E541.81926
G1 X90.076 Y83.960 E541.83846
G1 X90.858 Y82.497 E541.88786
G1 X91.527 Y80.292 E541.95649
G1 X91.753 Y78.000 E542.02509
G1 X91.527 Y75.708 E542.09368
G1 X90.858 Y73.503 E542.16231
G1 X90.555 Y72.933 E542.18154
G1 X89.773 Y71.470 E542.23094
G1 X88.311 Y69.689 E542.29957
G0 F10500 X92.749 Y65.251
G1 F1080 X92.749 Y90.749 E543.05899
G1 X67.251 Y90.749 E543.81840
G1 X67.251 Y65.251 E544.57782
G1 X92.749 Y65.251 E545.33724
G0 F10500 X93.249 Y64.751
;TYPE:WALL-OUTER
G1 F960 X93.249 Y91.249 E546.12644
G1 X66.751 Y91.249 E546.91564
G1 X66.751 Y64.751 E547.70484
G1 X93.249 Y64.751 E548.49404
G0 F10500 X92.899 Y65.011
G0 X88.226 Y69.824
G0 X87.956 Y70.044
G1 F960 X86.250 Y68.645 E548.55975
G1 X84.305 Y67.606 E548.62542
G1 X82.194 Y66.966 E548.69112
G1 X80.000 Y66.750 E548.75678
G1 X77.806 Y66.966 E548.82244
G1 X75.695 Y67.606 E548.88814
G1 X73.750 Y68.645 E548.95382
G1 X72.044 Y70.044 E549.01953
G1 X70.645 Y71.750 E549.08524
G1 X69.606 Y73.695 E549.15091
G1 X68.966 Y75.806 E549.21661
G1 X68.749 Y78.000 E549.28228
G1 X68.966 Y80.195 E549.34797
G1 X69.606 Y82.305 E549.41364
G1 X70.645 Y84.250 E549.47932
G1 X72.044 Y85.956 E549.54503
G1 X73.750 Y87.355 E549.61074
G1 X75.695 Y88.394 E549.67641
G1 X77.806 Y89.034 E549.74211
G1 X80.000 Y89.251 E549.80777
G1 X82.194 Y89.034 E549.87344
G1 X84.305 Y88.394 E549.93914
G1 X86.250 Y87.355 E550.00481
G1 X87.956 Y85.956 E550.07052
G1 X89.355 Y84.250 E550.13623
G1 X90.394 Y82.305 E550.20191
G1 X91.034 Y80.194 E550.26761
G1 X91.250 Y78.000 E550.33327
G1 X91.034 Y75.806 E550.39893
G1 X90.394 Y73.695 E550.46463
G1 X89.355 Y71.750 E550.53030
G1 X87.956 Y70.044 E550.59601
G0 F10500 X88.922 Y69.254
;LAYER:38
G0 X88.311 Y69.689 Z14.865
;TYPE:WALL-INNER
G1 F1080 X86.530 Y68.227 E550.66464
G1 X84.497 Y67.142 E550.73327
G1 X82.292 Y66.473 E550.80190
G1 X80.000 Y66.247 E550.87050
G1 X77.708 Y66.473 E550.93909
G1 X75.503 Y67.142 E551.00772
G1 X73.470 Y68.227 E551.07635
G1 X71.689 Y69.689 E551.14498
G1 X70.227 Y71.470 E551.21361
G1 X69.142 Y73.503 E551.28224
G1 X68.473 Y75.708 E551.35087
G1 X68.246 Y78.000 E551.41947
G1 X68.312 Y78.667 E551.43943
G1 X68.473 Y80.293 E551.48809
G1 X69.142 Y82.497 E551.55669
G1 X70.227 Y84.530 E551.62533
G1 X71.689 Y86.311 E551.69396
G1 X73.470 Y87.773 E551.76258
G1 X75.503 Y88.858 E551.83122
G1 X77.708 Y89.527 E551.89984
G1 X80.000 Y89.754 E551.96844
G1 X82.292 Y89.527 E552.03704
G1 X84.497 Y88.858 E552.10567
G1 X86.530 Y87.773 E552.17430
G1 X88.311 Y86.311 E552.24293
G1 X89.773 Y84.530 E552.31156
G1 X90.858 Y82.497 E552.38019
G1 X91.527 Y80.292 E552.44882
G1 X91.753 Y78.000 E552.51741
G1 X91.527 Y75.708 E552.58601
G1 X90.858 Y73.503 E552.65463
G1 X89.773 Y71.470 E552.72327
G1 X88.311 Y69.689 E552.79190
G0 F10500 X92.749 Y65.251
G1 F1080 X92.749 Y90.749 E553.55131
G1 X67.251 Y90.749 E554.31073
G1 X67.251 Y65.251 E555.07015
G1 X92.749 Y65.251 E555.82956
G0 F10500 X93.249 Y64.751
;TYPE:WALL-OUTER
G1 F960 X93.249 Y91.249 E556.61876
G1 X66.751 Y91.249 E557.40796
G1 X66.751 Y64.751 E558.19716
G1 X93.249 Y64.751 E558.98636
G0 F10500 X92.899 Y65.011
G0 X88.226 Y69.824
G0 X87.956 Y70.044
G1 F960 X86.251 Y68.645 E559.05205
G1 X84.305 Y67.606 E559.11775
G1 X82.194 Y66.966 E559.18345
G1 X80.000 Y66.750 E559.24911
G1 X77.806 Y66.966 E559.31477
G1 X75.695 Y67.606 E559.38047
G1 X73.749 Y68.645 E559.44617
G1 X72.044 Y70.044 E559.51186
G1 X70.645 Y71.749 E559.57755
G1 X69.606 Y73.695 E559.64325
G1 X68.966 Y75.806 E559.70895
G1 X68.749 Y78.000 E559.77461
G1 X68.966 Y80.195 E559.84030
G1 X69.606 Y82.305 E559.90597
G1 X70.645 Y84.251 E559.97168
G1 X72.044 Y85.956 E560.03736
G1 X73.749 Y87.355 E560.10305
G1 X75.695 Y88.394 E560.16875
G1 X77.806 Y89.034 E560.23445
G1 X80.000 Y89.251 E560.30012
G1 X82.194 Y89.034 E560.36578
G1 X84.305 Y88.394 E560.43148
G1 X86.251 Y87.355 E560.49718
G1 X87.956 Y85.956 E560.56287
G1 X89.355 Y84.251 E560.62855
G1 X90.394 Y82.305 E560.69426
G1 X91.034 Y80.194 E560.75995
G1 X91.250 Y78.000 E560.82562
G1 X91.034 Y75.806 E560.89128
G1 X90.394 Y73.695 E560.95697
G1 X89.355 Y71.749 E561.02268
G1 X87.956 Y70.044 E561.08836
G0 F10500 X88.922 Y69.254
;LAYER:39
G0 X88.311 Y69.689 Z15.245
;TYPE:WALL-INNER
G1 F1080 X86.530 Y68.227 E561.15699
G1 X84.497 Y67.141 E561.22564
G1 X82.291 Y66.473 E561.29429
G1 X81.603 Y66.406 E561.31487
G1 X80.001 Y66.247 E561.36282
G1 X79.311 Y66.315 E561.38347
G1 X77.708 Y66.473 E561.43145
G1 X75.503 Y67.141 E561.50007
G1 X73.470 Y68.227 E561.56871
G1 X71.689 Y69.689 E561.63734
G1 X70.227 Y71.470 E561.70597
G1 X69.141 Y73.503 E561.77462
G1 X68.473 Y75.709 E561.84326
G1 X68.406 Y76.397 E561.86385
G1 X68.246 Y77.999 E561.91180
G1 X68.314 Y78.689 E561.93245
G1 X68.473 Y80.293 E561.98046
G1 X68.673 Y80.956 E562.00108
G1 X69.142 Y82.497 E562.04906
G1 X70.227 Y84.530 E562.11769
G1 X71.689 Y86.311 E562.18632
G1 X73.470 Y87.773 E562.25495
G1 X75.503 Y88.859 E562.32359
G1 X77.709 Y89.527 E562.39224
G1 X78.397 Y89.594 E562.41283
G1 X79.999 Y89.754 E562.46078
G1 X80.689 Y89.686 E562.48143
G1 X82.292 Y89.527 E562.52941
G1 X84.497 Y88.859 E562.59803
G1 X86.530 Y87.773 E562.66667
G1 X88.311 Y86.311 E562.73530
G1 X89.773 Y84.530 E562.80393
G1 X90.859 Y82.497 E562.87258
G1 X91.527 Y80.291 E562.94122
G1 X91.594 Y79.603 E562.96181
G1 X91.753 Y78.001 E563.00976
G1 X91.685 Y77.311 E563.03041
G1 X91.527 Y75.708 E563.07838
G1 X90.859 Y73.503 E563.14700
G1 X89.773 Y71.470 E563.21565
G1 X88.311 Y69.689 E563.28428
G0 F10500 X92.749 Y65.251
G1 F1080 X92.749 Y90.749 E564.04370
G1 X67.251 Y90.749 E564.80311
G1 X67.251 Y65.251 E565.56253
G1 X92.749 Y65.251 E566.32195
G0 F10500 X93.249 Y64.751
;TYPE:WALL-OUTER
G1 F960 X93.249 Y91.249 E567.11115
G1 X66.751 Y91.249 E567.90035
G1 X66.751 Y64.751 E568.68955
G1 X93.249 Y64.751 E569.47875
G0 F10500 X92.899 Y65.011
G0 X88.226 Y69.824
G0 X87.956 Y70.044
G1 F960 X86.251 Y68.645 E569.54443
G1 X84.305 Y67.606 E569.61013
G1 X82.194 Y66.966 E569.67583
G1 X80.000 Y66.750 E569.74149
G1 X77.806 Y66.966 E569.80715
G1 X75.695 Y67.606 E569.87285
G1 X73.749 Y68.645 E569.93856
G1 X72.044 Y70.044 E570.00424
G1 X70.645 Y71.749 E570.06993
G1 X69.606 Y73.695 E570.13563
G1 X68.966 Y75.806 E570.20133
G1 X68.749 Y78.000 E570.26699
G1 X68.966 Y80.195 E570.33269
G1 X69.606 Y82.305 E570.39836
G1 X70.645 Y84.251 E570.46406
G1 X72.044 Y85.956 E570.52975
G1 X73.749 Y87.355 E570.59543
G1 X75.695 Y88.394 E570.66114
G1 X77.806 Y89.034 E570.72683
G1 X80.000 Y89.251 E570.79250
G1 X82.194 Y89.034 E570.85816
G1 X84.305 Y88.394 E570.92386
G1 X86.251 Y87.355 E570.98956
G1 X87.956 Y85.956 E571.05525
G1 X89.355 Y84.251 E571.12094
G1 X90.394 Y82.305 E571.18664
G1 X91.034 Y80.194 E571.25234
G1 X91.250 Y78.000 E571.31800
G1 X91.034 Y75.806 E571.38366
G1 X90.394 Y73.695 E571.44936
G1 X89.355 Y71.749 E571.51506
G1 X87.956 Y70.044 E571.58075
G0 F10500 X88.922 Y69.254
;LAYER:40
G0 X88.311 Y69.689 Z15.625
;TYPE:WALL-INNER
G1 F1080 X87.757 Y69.235 E571.60208
G1 X86.529 Y68.227 E571.64940
G1 X85.897 Y67.890 E571.67073
G1 X84.497 Y67.142 E571.71800
G1 X82.291 Y66.473 E571.78666
G1 X81.580 Y66.404 E571.80794
G1 X80.001 Y66.247 E571.85520
G1 X79.288 Y66.317 E571.87653
G1 X77.708 Y66.473 E571.92382
G1 X75.503 Y67.141 E571.99244
G1 X74.871 Y67.478 E572.01377
G1 X73.471 Y68.227 E572.06106
G1 X72.916 Y68.681 E572.08242
G1 X71.689 Y69.689 E572.12971
G1 X71.235 Y70.243 E572.15105
G1 X70.227 Y71.471 E572.19836
G1 X69.891 Y72.102 E572.21965
G1 X69.142 Y73.503 E572.26697
G1 X68.473 Y75.708 E572.33560
G1 X68.246 Y78.000 E572.40420
G1 X68.473 Y80.293 E572.47282
G1 X69.141 Y82.497 E572.54141
G1 X69.478 Y83.129 E572.56275
G1 X70.227 Y84.529 E572.61003
G1 X70.681 Y85.084 E572.63139
G1 X71.689 Y86.311 E572.67869
G1 X72.243 Y86.765 E572.70002
G1 X73.471 Y87.773 E572.74734
G1 X74.103 Y88.110 E572.76867
G1 X75.503 Y88.858 E572.81594
G1 X77.708 Y89.527 E572.88457
G1 X80.000 Y89.754 E572.95317
G1 X82.292 Y89.527 E573.02177
G1 X84.497 Y88.859 E573.09039
G1 X85.129 Y88.522 E573.11172
G1 X86.529 Y87.773 E573.15901
G1 X87.084 Y87.319 E573.18036
G1 X88.311 Y86.311 E573.22766
G1 X88.765 Y85.757 E573.24899
G1 X89.773 Y84.529 E573.29631
G1 X90.109 Y83.898 E573.31760
G1 X90.858 Y82.497 E573.36491
G1 X91.527 Y80.291 E573.43357
G1 X91.596 Y79.580 E573.45485
G1 X91.753 Y78.001 E573.50211
G1 X91.683 Y77.288 E573.52344
G1 X91.527 Y75.708 E573.57073
G1 X90.859 Y73.503 E573.63935
G1 X90.522 Y72.871 E573.66068
G1 X89.773 Y71.471 E573.70797
G1 X89.319 Y70.916 E573.72933
G1 X88.311 Y69.689 E573.77662
G0 F10500 X92.749 Y65.251
G1 F1080 X92.749 Y90.749 E574.53604
G1 X67.251 Y90.749 E575.29546
G1 X67.251 Y65.251 E576.05487
G1 X92.749 Y65.251 E576.81429
G0 F10500 X93.249 Y64.751
;TYPE:WALL-OUTER
G1 F960 X93.249 Y91.249 E577.60349
G1 X66.751 Y91.249 E578.39269
G1 X66.751 Y64.751 E579.18189
G1 X93.249 Y64.751 E579.97109
G0 F10500 X92.899 Y65.011
G0 X88.226 Y69.824
G0 X87.956 Y70.044
G1 F960 X86.250 Y68.645 E580.03680
G1 X84.305 Y67.606 E580.10247
G1 X82.194 Y66.966 E580.16817
G1 X80.000 Y66.750 E580.23383
G1 X77.806 Y66.966 E580.29949
G1 X75.695 Y67.606 E580.36519
G1 X73.750 Y68.645 E580.43087
G1 X72.044 Y70.044 E580.49658
G1 X70.645 Y71.750 E580.56229
G1 X69.606 Y73.695 E580.62797
G1 X68.966 Y75.806 E580.69366
G1 X68.749 Y78.000 E580.75933
G1 X68.966 Y80.195 E580.82502
G1 X69.606 Y82.305 E580.89069
G1 X70.645 Y84.250 E580.95637
G1 X72.044 Y85.956 E581.02208
G1 X73.750 Y87.355 E581.08779
G1 X75.695 Y88.394 E581.15346
G1 X77.806 Y89.034 E581.21916
G1 X80.000 Y89.251 E581.28483
G1 X82.194 Y89.034 E581.35049
G1 X84.305 Y88.394 E581.41619
G1 X86.250 Y87.355 E581.48186
G1 X87.956 Y85.956 E581.54757
G1 X89.355 Y84.250 E581.61328
G1 X90.394 Y82.305 E581.67896
G1 X91.034 Y80.194 E581.74466
G1 X91.250 Y78.000 E581.81032
G1 X91.034 Y75.806 E581.87598
G1 X90.394 Y73.695 E581.94168
G1 X89.355 Y71.750 E582.00735
G1 X87.956 Y70.044 E582.07307
G0 F10500 X88.922 Y69.254
;LAYER:41
G0 X88.311 Y69.689 Z16.005
;TYPE:WALL-INNER
G1 F1080 X86.529 Y68.227 E582.14172
G1 X84.497 Y67.142 E582.21032
G1 X82.292 Y66.473 E582.27895
G1 X80.000 Y66.247 E582.34755
G1 X77.708 Y66.473 E582.41614
G1 X75.503 Y67.142 E582.48477
G1 X73.471 Y68.227 E582.55338
G1 X71.689 Y69.689 E582.62203
G1 X70.227 Y71.471 E582.69068
G1 X69.142 Y73.503 E582.75928
G1 X68.473 Y75.708 E582.82791
G1 X68.246 Y78.000 E582.89651
G1 X68.473 Y80.293 E582.96514
G1 X69.142 Y82.497 E583.03374
G1 X70.227 Y84.529 E583.10234
G1 X71.689 Y86.311 E583.17099
G1 X73.471 Y87.773 E583.23964
G1 X75.503 Y88.858 E583.30825
G1 X77.708 Y89.527 E583.37688
G1 X80.000 Y89.754 E583.44548
G1 X82.292 Y89.527 E583.51407
G1 X84.497 Y88.858 E583.58270
G1 X86.529 Y87.773 E583.65131
G1 X88.311 Y86.311 E583.71996
G1 X89.773 Y84.529 E583.78861
G1 X90.858 Y82.497 E583.85722
G1 X91.527 Y80.292 E583.92585
G1 X91.753 Y78.000 E583.99444
G1 X91.527 Y75.708 E584.06303
G1 X90.858 Y73.503 E584.13166
G1 X89.773 Y71.471 E584.20027
G1 X88.311 Y69.689 E584.26892
G0 F10500 X92.749 Y65.251
G1 F1080 X92.749 Y90.749 E585.02834
G1 X67.251 Y90.749 E585.78775
G1 X67.251 Y65.251 E586.54717
G1 X92.749 Y65.251 E587.30659
G0 F10500 X93.249 Y64.751
;TYPE:WALL-OUTER
G1 F960 X93.249 Y91.249 E588.09579
G1 X66.751 Y91.249 E588.88499
G1 X66.751 Y64.751 E589.67419
G1 X93.249 Y64.751 E590.46339
G0 F10500 X92.899 Y65.011
G0 X88.226 Y69.824
G0 X87.956 Y70.044
G1 F960 X86.250 Y68.645 E590.52910
G1 X84.305 Y67.606 E590.59477
G1 X82.194 Y66.966 E590.66047
G1 X80.000 Y66.750 E590.72613
G1 X77.806 Y66.966 E590.79179
G1 X75.695 Y67.606 E590.85749
G1 X73.750 Y68.645 E590.92317
G1 X72.044 Y70.044 E590.98888
G1 X70.645 Y71.750 E591.05459
G1 X69.606 Y73.695 E591.12026
G1 X68.966 Y75.806 E591.18596
G1 X68.749 Y78.000 E591.25163
G1 X68.966 Y80.195 E591.31732
G1 X69.606 Y82.305 E591.38299
G1 X70.645 Y84.250 E591.44867
G1 X72.044 Y85.956 E591.51438
G1 X73.750 Y87.355 E591.58009
G1 X75.695 Y88.394 E591.64576
G1 X77.806 Y89.034 E591.71146
G1 X80.000 Y89.251 E591.77712
